;Generated with Cura_SteamEngine 15.01
; Default start code
G28 ; Home extruder
G1 Z15 F100
M107 ; Turn off fan
G90 ; Absolute positioning
M82 ; Extruder in absolute mode
M190 S95
; Activate all used extruder
M104 T0 S230
G92 E0 ; Reset extruder position
; Wait for all used extruders to reach temperature
M109 T0 S230
;Layer count: 50
;LAYER:0
M107
G0 F9000 X91.916 Y89.116 Z0.300
;TYPE:SKIRT
G1 F1800 X128.116 Y89.116 E1.80603
G1 X128.116 Y133.716 E4.03113
G1 X91.916 Y133.716 E5.83715
G1 X91.916 Y89.116 E8.06226
G1 F2400 E4.06226
G0 F9000 X95.716 Y92.916
;TYPE:WALL-INNER
G1 F2400 E8.06226
G1 F1800 X124.316 Y92.916 E9.48912
G1 X124.316 Y129.916 E11.33505
G1 X95.716 Y129.916 E12.76191
G1 X95.716 Y92.916 E14.60785
G0 F9000 X95.316 Y92.516
;TYPE:WALL-OUTER
G1 F1800 X124.716 Y92.516 E16.07462
G1 X124.716 Y130.316 E17.96047
G1 X95.316 Y130.316 E19.42724
G1 X95.316 Y92.516 E21.31309
G0 F9000 X95.854 Y93.309
;TYPE:SKIN
G1 F1800 X124.176 Y121.630 E23.31133
G0 F9000 X124.176 Y121.065
G1 F1800 X96.167 Y93.055 E25.28755
G0 F9000 X96.732 Y93.055
G1 F1800 X124.176 Y120.499 E27.22387
G0 F9000 X124.176 Y122.196
G1 F1800 X95.854 Y93.874 E29.22214
G0 F9000 X95.854 Y94.440
G1 F1800 X124.176 Y122.762 E31.22041
G0 F9000 X124.176 Y123.327
G1 F1800 X95.854 Y95.006 E33.21865
G0 F9000 X95.854 Y95.571
G1 F1800 X124.176 Y123.893 E35.21692
G0 F9000 X124.176 Y124.459
G1 F1800 X95.854 Y96.137 E37.21519
G0 F9000 X95.854 Y96.703
G1 F1800 X124.176 Y125.024 E39.21342
G0 F9000 X124.176 Y125.590
G1 F1800 X95.854 Y97.268 E41.21169
G0 F9000 X95.854 Y97.834
G1 F1800 X124.176 Y126.156 E43.20996
G0 F9000 X124.176 Y126.722
G1 F1800 X95.854 Y98.400 E45.20823
G0 F9000 X95.854 Y98.965
G1 F1800 X124.176 Y127.287 E47.20650
G0 F9000 X124.176 Y127.853
G1 F1800 X95.854 Y99.531 E49.20477
G0 F9000 X97.298 Y93.055
G1 F1800 X124.176 Y119.933 E51.10116
G0 F9000 X124.176 Y119.368
G1 F1800 X97.864 Y93.055 E52.95765
G0 F9000 X98.429 Y93.055
G1 F1800 X124.176 Y118.802 E54.77424
G0 F9000 X124.176 Y118.236
G1 F1800 X98.995 Y93.055 E56.55090
G0 F9000 X99.561 Y93.055
G1 F1800 X124.176 Y117.671 E58.28765
G0 F9000 X124.176 Y117.105
G1 F1800 X100.127 Y93.055 E59.98447
G0 F9000 X100.692 Y93.055
G1 F1800 X124.176 Y116.539 E61.64140
G0 F9000 X124.176 Y115.973
G1 F1800 X101.258 Y93.055 E63.25839
G0 F9000 X101.824 Y93.055
G1 F1800 X124.176 Y115.408 E64.83548
G0 F9000 X124.176 Y114.842
G1 F1800 X102.389 Y93.055 E66.37267
G0 F9000 X102.955 Y93.055
G1 F1800 X124.176 Y114.276 E67.86992
G0 F9000 X124.176 Y113.711
G1 F1800 X103.521 Y93.055 E69.32728
G0 F9000 X104.086 Y93.055
G1 F1800 X124.176 Y113.145 E70.74474
G0 F9000 X124.176 Y112.579
G1 F1800 X104.652 Y93.055 E72.12226
G0 F9000 X105.218 Y93.055
G1 F1800 X124.176 Y112.014 E73.45989
G0 F9000 X124.176 Y111.448
G1 F1800 X105.783 Y93.055 E74.75761
G0 F9000 X106.349 Y93.055
G1 F1800 X124.176 Y110.882 E76.01540
G0 F9000 X124.176 Y110.317
G1 F1800 X106.915 Y93.055 E77.23329
G0 F9000 X107.480 Y93.055
G1 F1800 X124.176 Y109.751 E78.41129
G0 F9000 X124.176 Y109.185
G1 F1800 X108.046 Y93.055 E79.54935
G0 F9000 X108.612 Y93.055
G1 F1800 X124.176 Y108.620 E80.64751
G0 F9000 X124.176 Y108.054
G1 F1800 X109.177 Y93.055 E81.70577
G0 F9000 X109.743 Y93.055
G1 F1800 X124.176 Y107.488 E82.72409
G0 F9000 X124.176 Y106.923
G1 F1800 X110.309 Y93.055 E83.70252
G0 F9000 X110.875 Y93.055
G1 F1800 X124.176 Y106.357 E84.64101
G0 F9000 X124.176 Y105.791
G1 F1800 X111.440 Y93.055 E85.53961
G0 F9000 X112.006 Y93.055
G1 F1800 X124.176 Y105.225 E86.39826
G0 F9000 X124.176 Y104.660
G1 F1800 X112.572 Y93.055 E87.21702
G0 F9000 X113.137 Y93.055
G1 F1800 X124.176 Y104.094 E87.99589
G0 F9000 X124.176 Y103.528
G1 F1800 X113.703 Y93.055 E88.73481
G0 F9000 X114.269 Y93.055
G1 F1800 X124.176 Y102.963 E89.43384
G0 F9000 X124.176 Y102.397
G1 F1800 X114.834 Y93.055 E90.09297
G0 F9000 X115.400 Y93.055
G1 F1800 X124.176 Y101.831 E90.71216
G0 F9000 X124.176 Y101.266
G1 F1800 X115.966 Y93.055 E91.29146
G0 F9000 X116.531 Y93.055
G1 F1800 X124.176 Y100.700 E91.83085
G0 F9000 X124.176 Y100.134
G1 F1800 X117.097 Y93.055 E92.33032
G0 F9000 X117.663 Y93.055
G1 F1800 X124.176 Y99.569 E92.78988
G0 F9000 X124.176 Y99.003
G1 F1800 X118.228 Y93.055 E93.20954
G0 F9000 X118.794 Y93.055
G1 F1800 X124.176 Y98.437 E93.58927
G0 F9000 X124.176 Y97.872
G1 F1800 X119.360 Y93.055 E93.92910
G0 F9000 X119.926 Y93.055
G1 F1800 X124.176 Y97.306 E94.22900
G0 F9000 X124.176 Y96.740
G1 F1800 X120.491 Y93.055 E94.48899
G0 F9000 X121.057 Y93.055
G1 F1800 X124.176 Y96.175 E94.70909
G0 F9000 X124.176 Y95.609
G1 F1800 X121.623 Y93.055 E94.88925
G0 F9000 X122.188 Y93.055
G1 F1800 X124.176 Y95.043 E95.02952
G0 F9000 X124.176 Y94.477
G1 F1800 X122.754 Y93.055 E95.12985
G0 F9000 X123.320 Y93.055
G1 F1800 X124.176 Y93.912 E95.19028
G0 F9000 X124.176 Y93.346
G1 F1800 X123.885 Y93.055 E95.21081
G0 F9000 X95.854 Y100.097
G1 F1800 X124.176 Y128.419 E97.20908
G0 F9000 X124.176 Y128.984
G1 F1800 X95.854 Y100.663 E99.20732
G0 F9000 X95.854 Y101.228
G1 F1800 X124.176 Y129.550 E101.20559
G0 F9000 X123.835 Y129.775
G1 F1800 X95.854 Y101.794 E103.17980
G0 F9000 X95.854 Y102.360
G1 F1800 X123.269 Y129.775 E105.11407
G0 F9000 X122.704 Y129.775
G1 F1800 X95.854 Y102.925 E107.00849
G0 F9000 X95.854 Y103.491
G1 F1800 X122.138 Y129.775 E108.86296
G0 F9000 X121.572 Y129.775
G1 F1800 X95.854 Y104.057 E110.67751
G0 F9000 X95.854 Y104.622
G1 F1800 X121.007 Y129.775 E112.45219
G0 F9000 X120.441 Y129.775
G1 F1800 X95.854 Y105.188 E114.18693
G0 F9000 X95.854 Y105.754
G1 F1800 X119.875 Y129.775 E115.88174
G0 F9000 X119.310 Y129.775
G1 F1800 X95.854 Y106.319 E117.53669
G0 F9000 X95.854 Y106.885
G1 F1800 X118.744 Y129.775 E119.15170
G0 F9000 X118.178 Y129.775
G1 F1800 X95.854 Y107.451 E120.72678
G0 F9000 X95.854 Y108.016
G1 F1800 X117.613 Y129.775 E122.26200
G0 F9000 X117.047 Y129.775
G1 F1800 X95.854 Y108.582 E123.75728
G0 F9000 X95.854 Y109.148
G1 F1800 X116.481 Y129.775 E125.21263
G0 F9000 X115.916 Y129.775
G1 F1800 X95.854 Y109.713 E126.62811
G0 F9000 X95.854 Y110.279
G1 F1800 X115.350 Y129.775 E128.00366
G0 F9000 X114.784 Y129.775
G1 F1800 X95.854 Y110.845 E129.33927
G0 F9000 X95.854 Y111.411
G1 F1800 X114.218 Y129.775 E130.63495
G0 F9000 X113.653 Y129.775
G1 F1800 X95.854 Y111.976 E131.89076
G0 F9000 X95.854 Y112.542
G1 F1800 X113.087 Y129.775 E133.10665
G0 F9000 X112.521 Y129.775
G1 F1800 X95.854 Y113.108 E134.28259
G0 F9000 X95.854 Y113.673
G1 F1800 X111.956 Y129.775 E135.41868
G0 F9000 X111.390 Y129.775
G1 F1800 X95.854 Y114.239 E136.51482
G0 F9000 X95.854 Y114.805
G1 F1800 X110.824 Y129.775 E137.57104
G0 F9000 X110.259 Y129.775
G1 F1800 X95.854 Y115.370 E138.58739
G0 F9000 X95.854 Y115.936
G1 F1800 X109.693 Y129.775 E139.56381
G0 F9000 X109.127 Y129.775
G1 F1800 X95.854 Y116.502 E140.50029
G0 F9000 X95.854 Y117.067
G1 F1800 X108.562 Y129.775 E141.39691
G0 F9000 X107.996 Y129.775
G1 F1800 X95.854 Y117.633 E142.25359
G0 F9000 X95.854 Y118.199
G1 F1800 X107.430 Y129.775 E143.07034
G0 F9000 X106.865 Y129.775
G1 F1800 X95.854 Y118.764 E143.84722
G0 F9000 X95.854 Y119.330
G1 F1800 X106.299 Y129.775 E144.58418
G0 F9000 X105.733 Y129.775
G1 F1800 X95.854 Y119.896 E145.28119
G0 F9000 X95.854 Y120.462
G1 F1800 X105.167 Y129.775 E145.93827
G0 F9000 X104.602 Y129.775
G1 F1800 X95.854 Y121.027 E146.55549
G0 F9000 X95.854 Y121.593
G1 F1800 X104.036 Y129.775 E147.13278
G0 F9000 X103.470 Y129.775
G1 F1800 X95.854 Y122.159 E147.67013
G0 F9000 X95.854 Y122.724
G1 F1800 X102.905 Y129.775 E148.16761
G0 F9000 X102.339 Y129.775
G1 F1800 X95.854 Y123.290 E148.62517
G0 F9000 X95.854 Y123.856
G1 F1800 X101.773 Y129.775 E149.04278
G0 F9000 X101.208 Y129.775
G1 F1800 X95.854 Y124.421 E149.42054
G0 F9000 X95.854 Y124.987
G1 F1800 X100.642 Y129.775 E149.75836
G0 F9000 X100.076 Y129.775
G1 F1800 X95.854 Y125.553 E150.05624
G0 F9000 X95.854 Y126.118
G1 F1800 X99.511 Y129.775 E150.31426
G0 F9000 X98.945 Y129.775
G1 F1800 X95.854 Y126.684 E150.53235
G0 F9000 X95.854 Y127.250
G1 F1800 X98.379 Y129.775 E150.71050
G0 F9000 X97.814 Y129.775
G1 F1800 X95.854 Y127.815 E150.84879
G0 F9000 X95.854 Y128.381
G1 F1800 X97.248 Y129.775 E150.94714
G0 F9000 X96.682 Y129.775
G1 F1800 X95.854 Y128.947 E151.00556
G0 F9000 X95.854 Y129.512
G1 F1800 X96.117 Y129.775 E151.02412
;LAYER:1
M106 S63
G0 F9000 X95.716 Y129.916 Z0.500
;TYPE:WALL-INNER
G1 F2220 X95.716 Y92.916 E152.25474
G1 X124.316 Y92.916 E153.20598
G1 X124.316 Y129.916 E154.43661
G1 X95.716 Y129.916 E155.38785
G0 F9000 X95.316 Y130.316
;TYPE:WALL-OUTER
G1 F1980 X95.316 Y92.516 E156.64508
G1 X124.716 Y92.516 E157.62293
G1 X124.716 Y130.316 E158.88016
G1 X95.316 Y130.316 E159.85801
G0 F9000 X95.855 Y129.570
;TYPE:SKIN
G1 F1980 X124.175 Y101.249 E161.19012
G0 F9000 X124.175 Y100.684
G1 F1980 X95.855 Y129.004 E162.52221
G0 F9000 X95.855 Y128.438
G1 F1980 X124.175 Y100.118 E163.85429
G0 F9000 X124.175 Y101.815
G1 F1980 X96.216 Y129.775 E165.16942
G0 F9000 X96.781 Y129.775
G1 F1980 X124.175 Y102.381 E166.45795
G0 F9000 X124.175 Y102.946
G1 F1980 X97.347 Y129.775 E167.71988
G0 F9000 X97.913 Y129.775
G1 F1980 X124.175 Y103.512 E168.95519
G0 F9000 X124.175 Y104.078
G1 F1980 X98.478 Y129.775 E170.16390
G0 F9000 X99.044 Y129.775
G1 F1980 X124.175 Y104.644 E171.34598
G0 F9000 X124.175 Y105.209
G1 F1980 X99.610 Y129.775 E172.50147
G0 F9000 X95.855 Y127.873
G1 F1980 X124.175 Y99.552 E173.83358
G0 F9000 X124.175 Y98.987
G1 F1980 X95.855 Y127.307 E175.16566
G0 F9000 X95.855 Y126.741
G1 F1980 X124.175 Y98.421 E176.49775
G0 F9000 X124.175 Y97.855
G1 F1980 X95.855 Y126.176 E177.82986
G0 F9000 X95.855 Y125.610
G1 F1980 X124.175 Y97.290 E179.16195
G0 F9000 X124.175 Y96.724
G1 F1980 X95.855 Y125.044 E180.49403
G0 F9000 X95.855 Y124.479
G1 F1980 X124.175 Y96.158 E181.82614
G0 F9000 X124.175 Y95.593
G1 F1980 X95.855 Y123.913 E183.15823
G0 F9000 X95.855 Y123.347
G1 F1980 X124.175 Y95.027 E184.49031
G0 F9000 X124.175 Y94.461
G1 F1980 X95.855 Y122.782 E185.82242
G0 F9000 X95.855 Y122.216
G1 F1980 X124.175 Y93.896 E187.15451
G0 F9000 X124.175 Y93.330
G1 F1980 X95.855 Y121.650 E188.48659
G0 F9000 X95.855 Y121.084
G1 F1980 X123.884 Y93.055 E189.80499
G0 F9000 X123.318 Y93.055
G1 F1980 X95.855 Y120.519 E191.09679
G0 F9000 X95.855 Y119.953
G1 F1980 X122.753 Y93.055 E192.36199
G0 F9000 X122.187 Y93.055
G1 F1980 X95.855 Y119.387 E193.60057
G0 F9000 X95.855 Y118.822
G1 F1980 X121.621 Y93.055 E194.81254
G0 F9000 X121.055 Y93.055
G1 F1980 X95.855 Y118.256 E195.99790
G0 F9000 X95.855 Y117.690
G1 F1980 X120.490 Y93.055 E197.15665
G0 F9000 X119.924 Y93.055
G1 F1980 X95.855 Y117.125 E198.28881
G0 F9000 X95.855 Y116.559
G1 F1980 X119.358 Y93.055 E199.39434
G0 F9000 X118.793 Y93.055
G1 F1980 X95.855 Y115.993 E200.47328
G0 F9000 X95.855 Y115.428
G1 F1980 X118.227 Y93.055 E201.52561
G0 F9000 X117.661 Y93.055
G1 F1980 X95.855 Y114.862 E202.55132
G0 F9000 X95.855 Y114.296
G1 F1980 X117.096 Y93.055 E203.55043
G0 F9000 X116.530 Y93.055
G1 F1980 X95.855 Y113.731 E204.52294
G0 F9000 X95.855 Y113.165
G1 F1980 X115.964 Y93.055 E205.46883
G0 F9000 X115.399 Y93.055
G1 F1980 X95.855 Y112.599 E206.38812
G0 F9000 X95.855 Y112.033
G1 F1980 X114.833 Y93.055 E207.28079
G0 F9000 X114.267 Y93.055
G1 F1980 X95.855 Y111.468 E208.14686
G0 F9000 X95.855 Y110.902
G1 F1980 X113.702 Y93.055 E208.98633
G0 F9000 X113.136 Y93.055
G1 F1980 X95.855 Y110.336 E209.79917
G0 F9000 X95.855 Y109.771
G1 F1980 X112.570 Y93.055 E210.58542
G0 F9000 X112.005 Y93.055
G1 F1980 X95.855 Y109.205 E211.34506
G0 F9000 X95.855 Y108.639
G1 F1980 X111.439 Y93.055 E212.07809
G0 F9000 X110.873 Y93.055
G1 F1980 X95.855 Y108.074 E212.78451
G0 F9000 X95.855 Y107.508
G1 F1980 X110.307 Y93.055 E213.46431
G0 F9000 X109.742 Y93.055
G1 F1980 X95.855 Y106.942 E214.11751
G0 F9000 X95.855 Y106.377
G1 F1980 X109.176 Y93.055 E214.74412
G0 F9000 X108.610 Y93.055
G1 F1980 X95.855 Y105.811 E215.34410
G0 F9000 X95.855 Y105.245
G1 F1980 X108.045 Y93.055 E215.91748
G0 F9000 X107.479 Y93.055
G1 F1980 X95.855 Y104.680 E216.46426
G0 F9000 X95.855 Y104.114
G1 F1980 X106.913 Y93.055 E216.98441
G0 F9000 X106.348 Y93.055
G1 F1980 X95.855 Y103.548 E217.47797
G0 F9000 X95.855 Y102.983
G1 F1980 X105.782 Y93.055 E217.94493
G0 F9000 X105.216 Y93.055
G1 F1980 X95.855 Y102.417 E218.38527
G0 F9000 X95.855 Y101.851
G1 F1980 X104.651 Y93.055 E218.79901
G0 F9000 X104.085 Y93.055
G1 F1980 X95.855 Y101.285 E219.18612
G0 F9000 X95.855 Y100.720
G1 F1980 X103.519 Y93.055 E219.54663
G0 F9000 X102.954 Y93.055
G1 F1980 X95.855 Y100.154 E219.88055
G0 F9000 X95.855 Y99.588
G1 F1980 X102.388 Y93.055 E220.18784
G0 F9000 X101.822 Y93.055
G1 F1980 X95.855 Y99.023 E220.46853
G0 F9000 X95.855 Y98.457
G1 F1980 X101.256 Y93.055 E220.72260
G0 F9000 X100.691 Y93.055
G1 F1980 X95.855 Y97.891 E220.95008
G0 F9000 X95.855 Y97.326
G1 F1980 X100.125 Y93.055 E221.15095
G0 F9000 X99.559 Y93.055
G1 F1980 X95.855 Y96.760 E221.32519
G0 F9000 X95.855 Y96.194
G1 F1980 X98.994 Y93.055 E221.47284
G0 F9000 X98.428 Y93.055
G1 F1980 X95.855 Y95.629 E221.59389
G0 F9000 X95.855 Y95.063
G1 F1980 X97.862 Y93.055 E221.68832
G0 F9000 X97.297 Y93.055
G1 F1980 X95.855 Y94.497 E221.75615
G0 F9000 X95.855 Y93.932
G1 F1980 X96.731 Y93.055 E221.79738
G0 F9000 X96.165 Y93.055
G1 F1980 X95.855 Y93.366 E221.81198
G0 F9000 X124.175 Y105.775
G1 F1980 X100.175 Y129.775 E222.94087
G0 F9000 X100.741 Y129.775
G1 F1980 X124.175 Y106.341 E224.04313
G0 F9000 X124.175 Y106.906
G1 F1980 X101.307 Y129.775 E225.11879
G0 F9000 X101.872 Y129.775
G1 F1980 X124.175 Y107.472 E226.16786
G0 F9000 X124.175 Y108.038
G1 F1980 X102.438 Y129.775 E227.19030
G0 F9000 X103.004 Y129.775
G1 F1980 X124.175 Y108.603 E228.18614
G0 F9000 X124.175 Y109.169
G1 F1980 X103.569 Y129.775 E229.15539
G0 F9000 X104.135 Y129.775
G1 F1980 X124.175 Y109.735 E230.09801
G0 F9000 X124.175 Y110.300
G1 F1980 X104.701 Y129.775 E231.01403
G0 F9000 X105.266 Y129.775
G1 F1980 X124.175 Y110.866 E231.90345
G0 F9000 X124.175 Y111.432
G1 F1980 X105.832 Y129.775 E232.76625
G0 F9000 X106.398 Y129.775
G1 F1980 X124.175 Y111.997 E233.60245
G0 F9000 X124.175 Y112.563
G1 F1980 X106.964 Y129.775 E234.41202
G0 F9000 X107.529 Y129.775
G1 F1980 X124.175 Y113.129 E235.19500
G0 F9000 X124.175 Y113.694
G1 F1980 X108.095 Y129.775 E235.95138
G0 F9000 X108.661 Y129.775
G1 F1980 X124.175 Y114.260 E236.68113
G0 F9000 X124.175 Y114.826
G1 F1980 X109.226 Y129.775 E237.38429
G0 F9000 X109.792 Y129.775
G1 F1980 X124.175 Y115.392 E238.06082
G0 F9000 X124.175 Y115.957
G1 F1980 X110.358 Y129.775 E238.71075
G0 F9000 X110.923 Y129.775
G1 F1980 X124.175 Y116.523 E239.33408
G0 F9000 X124.175 Y117.089
G1 F1980 X111.489 Y129.775 E239.93080
G0 F9000 X112.055 Y129.775
G1 F1980 X124.175 Y117.654 E240.50091
G0 F9000 X124.175 Y118.220
G1 F1980 X112.620 Y129.775 E241.04442
G0 F9000 X113.186 Y129.775
G1 F1980 X124.175 Y118.786 E241.56131
G0 F9000 X124.175 Y119.351
G1 F1980 X113.752 Y129.775 E242.05160
G0 F9000 X114.317 Y129.775
G1 F1980 X124.175 Y119.917 E242.51529
G0 F9000 X124.175 Y120.483
G1 F1980 X114.883 Y129.775 E242.95235
G0 F9000 X115.449 Y129.775
G1 F1980 X124.175 Y121.048 E243.36282
G0 F9000 X124.175 Y121.614
G1 F1980 X116.015 Y129.775 E243.74667
G0 F9000 X116.580 Y129.775
G1 F1980 X124.175 Y122.180 E244.10391
G0 F9000 X124.175 Y122.745
G1 F1980 X117.146 Y129.775 E244.43456
G0 F9000 X117.712 Y129.775
G1 F1980 X124.175 Y123.311 E244.73858
G0 F9000 X124.175 Y123.877
G1 F1980 X118.277 Y129.775 E245.01601
G0 F9000 X118.843 Y129.775
G1 F1980 X124.175 Y124.443 E245.26681
G0 F9000 X124.175 Y125.008
G1 F1980 X119.409 Y129.775 E245.49101
G0 F9000 X119.974 Y129.775
G1 F1980 X124.175 Y125.574 E245.68861
G0 F9000 X124.175 Y126.140
G1 F1980 X120.540 Y129.775 E245.85959
G0 F9000 X121.106 Y129.775
