;Generated with Cura_SteamEngine 15.01
; Default start code
G28 ; Home extruder
G1 Z15 F100
M107 ; Turn off fan
G90 ; Absolute positioning
M82 ; Extruder in absolute mode
M190 S60
; Activate all used extruder
M104 T0 S210
G92 E0 ; Reset extruder position
; Wait for all used extruders to reach temperature
M109 T0 S210
;Layer count: 20
;LAYER:0
M107
G0 F9000 X12.135 Y159.101 Z0.300
;TYPE:SKIRT
G1 F1800 X57.535 Y159.101 E2.26502
G1 X57.535 Y195.501 E4.08102
G1 X12.135 Y195.501 E6.34603
G1 X12.135 Y159.101 E8.16204
G1 F2400 E4.16204
G0 F9000 X15.935 Y162.901
;TYPE:WALL-INNER
G1 F2400 E8.16204
G1 F1800 X53.735 Y162.901 E10.04789
G1 X53.735 Y191.701 E11.48472
G1 X15.935 Y191.701 E13.37057
G1 X15.935 Y162.901 E14.80741
G0 F9000 X15.535 Y162.501
;TYPE:WALL-OUTER
G1 F1800 X54.135 Y162.501 E16.73317
G1 X54.135 Y192.101 E18.20992
G1 X15.535 Y192.101 E20.13569
G1 X15.535 Y162.501 E21.61244
G0 F9000 X16.245 Y163.040
;TYPE:SKIN
G1 F1800 X44.764 Y191.560 E23.62464
G0 F9000 X44.199 Y191.560
G1 F1800 X16.074 Y163.435 E25.60901
G0 F9000 X16.074 Y164.001
G1 F1800 X43.633 Y191.560 E27.55345
G0 F9000 X43.067 Y191.560
G1 F1800 X16.074 Y164.567 E29.45795
G0 F9000 X16.074 Y165.132
G1 F1800 X42.502 Y191.560 E31.32259
G0 F9000 X41.936 Y191.560
G1 F1800 X16.074 Y165.698 E33.14729
G0 F9000 X16.074 Y166.264
G1 F1800 X41.370 Y191.560 E34.93206
G0 F9000 X40.805 Y191.560
G1 F1800 X16.074 Y166.829 E36.67697
G0 F9000 X16.074 Y167.395
G1 F1800 X40.239 Y191.560 E38.38194
G0 F9000 X45.330 Y191.560
G1 F1800 X16.810 Y163.040 E40.39418
G0 F9000 X17.376 Y163.040
G1 F1800 X45.896 Y191.560 E42.40642
G0 F9000 X46.461 Y191.560
G1 F1800 X17.942 Y163.040 E44.41862
G0 F9000 X18.507 Y163.040
G1 F1800 X47.027 Y191.560 E46.43086
G0 F9000 X47.593 Y191.560
G1 F1800 X19.073 Y163.040 E48.44310
G0 F9000 X19.639 Y163.040
G1 F1800 X48.158 Y191.560 E50.45531
G0 F9000 X48.724 Y191.560
G1 F1800 X20.204 Y163.040 E52.46755
G0 F9000 X20.770 Y163.040
G1 F1800 X49.290 Y191.560 E54.47979
G0 F9000 X49.855 Y191.560
G1 F1800 X21.336 Y163.040 E56.49199
G0 F9000 X21.901 Y163.040
G1 F1800 X50.421 Y191.560 E58.50423
G0 F9000 X50.987 Y191.560
G1 F1800 X22.467 Y163.040 E60.51647
G0 F9000 X23.033 Y163.040
G1 F1800 X51.553 Y191.560 E62.52871
G0 F9000 X52.118 Y191.560
G1 F1800 X23.598 Y163.040 E64.54095
G0 F9000 X24.164 Y163.040
G1 F1800 X52.684 Y191.560 E66.55319
G0 F9000 X53.250 Y191.560
G1 F1800 X24.730 Y163.040 E68.56543
G0 F9000 X25.296 Y163.040
G1 F1800 X53.595 Y191.339 E70.56208
G0 F9000 X53.595 Y190.773
G1 F1800 X25.861 Y163.040 E72.51883
G0 F9000 X26.427 Y163.040
G1 F1800 X53.595 Y190.208 E74.43568
G0 F9000 X53.595 Y189.642
G1 F1800 X26.993 Y163.040 E76.31259
G0 F9000 X27.558 Y163.040
G1 F1800 X53.595 Y189.076 E78.14961
G0 F9000 X53.595 Y188.511
G1 F1800 X28.124 Y163.040 E79.94672
G0 F9000 X28.690 Y163.040
G1 F1800 X53.595 Y187.945 E81.70391
G0 F9000 X53.595 Y187.379
G1 F1800 X29.255 Y163.040 E83.42119
G0 F9000 X29.821 Y163.040
G1 F1800 X53.595 Y186.814 E85.09857
G0 F9000 X53.595 Y186.248
G1 F1800 X30.387 Y163.040 E86.73602
G0 F9000 X30.952 Y163.040
G1 F1800 X53.595 Y185.682 E88.33357
G0 F9000 X53.595 Y185.117
G1 F1800 X31.518 Y163.040 E89.89123
G0 F9000 X32.084 Y163.040
G1 F1800 X53.595 Y184.551 E91.40894
G0 F9000 X53.595 Y183.985
G1 F1800 X32.649 Y163.040 E92.88676
G0 F9000 X33.215 Y163.040
G1 F1800 X53.595 Y183.419 E94.32464
G0 F9000 X53.595 Y182.854
G1 F1800 X33.781 Y163.040 E95.72263
G0 F9000 X34.347 Y163.040
G1 F1800 X53.595 Y182.288 E97.08068
G0 F9000 X53.595 Y181.722
G1 F1800 X34.912 Y163.040 E98.39883
G0 F9000 X35.478 Y163.040
G1 F1800 X53.595 Y181.157 E99.67708
G0 F9000 X53.595 Y180.591
G1 F1800 X36.044 Y163.040 E100.91540
G0 F9000 X36.609 Y163.040
G1 F1800 X53.595 Y180.025 E102.11382
G0 F9000 X53.595 Y179.460
G1 F1800 X37.175 Y163.040 E103.27234
G0 F9000 X37.741 Y163.040
G1 F1800 X53.595 Y178.894 E104.39093
G0 F9000 X53.595 Y178.328
G1 F1800 X38.306 Y163.040 E105.46961
G0 F9000 X38.872 Y163.040
G1 F1800 X53.595 Y177.763 E106.50840
G0 F9000 X53.595 Y177.197
G1 F1800 X39.438 Y163.040 E107.50725
G0 F9000 X40.003 Y163.040
G1 F1800 X53.595 Y176.631 E108.46621
G0 F9000 X53.595 Y176.066
G1 F1800 X40.569 Y163.040 E109.38526
G0 F9000 X41.135 Y163.040
G1 F1800 X53.595 Y175.500 E110.26438
G0 F9000 X53.595 Y174.934
G1 F1800 X41.700 Y163.040 E111.10360
G0 F9000 X42.266 Y163.040
G1 F1800 X53.595 Y174.368 E111.90289
G0 F9000 X53.595 Y173.803
G1 F1800 X42.832 Y163.040 E112.66228
G0 F9000 X43.397 Y163.040
G1 F1800 X53.595 Y173.237 E113.38176
G0 F9000 X53.595 Y172.671
G1 F1800 X43.963 Y163.040 E114.06132
G0 F9000 X44.529 Y163.040
G1 F1800 X53.595 Y172.106 E114.70097
G0 F9000 X53.595 Y171.540
G1 F1800 X45.095 Y163.040 E115.30070
G0 F9000 X45.660 Y163.040
G1 F1800 X53.595 Y170.974 E115.86052
G0 F9000 X53.595 Y170.409
G1 F1800 X46.226 Y163.040 E116.38044
G0 F9000 X46.792 Y163.040
G1 F1800 X53.595 Y169.843 E116.86043
G0 F9000 X53.595 Y169.277
G1 F1800 X47.357 Y163.040 E117.30052
G0 F9000 X47.923 Y163.040
G1 F1800 X53.595 Y168.712 E117.70071
G0 F9000 X53.595 Y168.146
G1 F1800 X48.489 Y163.040 E118.06096
G0 F9000 X49.054 Y163.040
G1 F1800 X53.595 Y167.580 E118.38132
G0 F9000 X53.595 Y167.015
G1 F1800 X49.620 Y163.040 E118.66178
G0 F9000 X50.186 Y163.040
G1 F1800 X53.595 Y166.449 E118.90230
G0 F9000 X53.595 Y165.883
G1 F1800 X50.751 Y163.040 E119.10293
G0 F9000 X51.317 Y163.040
G1 F1800 X53.595 Y165.318 E119.26365
G0 F9000 X53.595 Y164.752
G1 F1800 X51.883 Y163.040 E119.38444
G0 F9000 X52.448 Y163.040
G1 F1800 X53.595 Y164.186 E119.46533
G0 F9000 X53.595 Y163.620
G1 F1800 X53.014 Y163.040 E119.50629
G0 F9000 X39.673 Y191.560
G1 F1800 X16.074 Y167.961 E121.17133
G0 F9000 X16.074 Y168.526
G1 F1800 X39.107 Y191.560 E122.79647
G0 F9000 X38.542 Y191.560
G1 F1800 X16.074 Y169.092 E124.38170
G0 F9000 X16.074 Y169.658
G1 F1800 X37.976 Y191.560 E125.92701
G0 F9000 X37.410 Y191.560
G1 F1800 X16.074 Y170.223 E127.43241
G0 F9000 X16.074 Y170.789
G1 F1800 X36.845 Y191.560 E128.89792
G0 F9000 X36.279 Y191.560
G1 F1800 X16.074 Y171.355 E130.32349
G0 F9000 X16.074 Y171.920
G1 F1800 X35.713 Y191.560 E131.70917
G0 F9000 X35.148 Y191.560
G1 F1800 X16.074 Y172.486 E133.05494
G0 F9000 X16.074 Y173.052
G1 F1800 X34.582 Y191.560 E134.36078
G0 F9000 X34.016 Y191.560
G1 F1800 X16.074 Y173.618 E135.62668
G0 F9000 X16.074 Y174.183
G1 F1800 X33.451 Y191.560 E136.85272
G0 F9000 X32.885 Y191.560
G1 F1800 X16.074 Y174.749 E138.03883
G0 F9000 X16.074 Y175.315
G1 F1800 X32.319 Y191.560 E139.18500
G0 F9000 X31.754 Y191.560
G1 F1800 X16.074 Y175.880 E140.29131
G0 F9000 X16.074 Y176.446
G1 F1800 X31.188 Y191.560 E141.35769
G0 F9000 X30.622 Y191.560
G1 F1800 X16.074 Y177.012 E142.38413
G0 F9000 X16.074 Y177.577
G1 F1800 X30.056 Y191.560 E143.37067
G0 F9000 X29.491 Y191.560
G1 F1800 X16.074 Y178.143 E144.31731
G0 F9000 X16.074 Y178.709
G1 F1800 X28.925 Y191.560 E145.22402
G0 F9000 X28.359 Y191.560
G1 F1800 X16.074 Y179.274 E146.09083
G0 F9000 X16.074 Y179.840
G1 F1800 X27.794 Y191.560 E146.91773
G0 F9000 X27.228 Y191.560
G1 F1800 X16.074 Y180.406 E147.70471
G0 F9000 X16.074 Y180.971
G1 F1800 X26.662 Y191.560 E148.45179
G0 F9000 X26.097 Y191.560
G1 F1800 X16.074 Y181.537 E149.15896
G0 F9000 X16.074 Y182.103
G1 F1800 X25.531 Y191.560 E149.82620
G0 F9000 X24.965 Y191.560
G1 F1800 X16.074 Y182.669 E150.45351
G0 F9000 X16.074 Y183.234
G1 F1800 X24.400 Y191.560 E151.04096
G0 F9000 X23.834 Y191.560
G1 F1800 X16.074 Y183.800 E151.58847
G0 F9000 X16.074 Y184.366
G1 F1800 X23.268 Y191.560 E152.09604
G0 F9000 X22.703 Y191.560
G1 F1800 X16.074 Y184.931 E152.56375
G0 F9000 X16.074 Y185.497
G1 F1800 X22.137 Y191.560 E152.99153
G0 F9000 X21.571 Y191.560
G1 F1800 X16.074 Y186.063 E153.37937
G0 F9000 X16.074 Y186.628
G1 F1800 X21.006 Y191.560 E153.72735
G0 F9000 X20.440 Y191.560
G1 F1800 X16.074 Y187.194 E154.03540
G0 F9000 X16.074 Y187.760
G1 F1800 X19.874 Y191.560 E154.30351
G0 F9000 X19.308 Y191.560
G1 F1800 X16.074 Y188.325 E154.53172
G0 F9000 X16.074 Y188.891
G1 F1800 X18.743 Y191.560 E154.72003
G0 F9000 X18.177 Y191.560
G1 F1800 X16.074 Y189.457 E154.86841
G0 F9000 X16.074 Y190.022
G1 F1800 X17.611 Y191.560 E154.97689
G0 F9000 X17.046 Y191.560
G1 F1800 X16.074 Y190.588 E155.04547
G0 F9000 X16.074 Y191.154
G1 F1800 X16.480 Y191.560 E155.07412
;LAYER:1
M106 S63
G0 F9000 X15.935 Y191.701 Z0.500
;TYPE:WALL-INNER
G1 F2220 X15.935 Y162.901 E156.03201
G1 X53.735 Y162.901 E157.28924
G1 X53.735 Y191.701 E158.24713
G1 X15.935 Y191.701 E159.50437
G0 F9000 X15.535 Y192.101
;TYPE:WALL-OUTER
G1 F1980 X15.535 Y162.501 E160.48887
G1 X54.135 Y162.501 E161.77271
G1 X54.135 Y192.101 E162.75721
G1 X15.535 Y192.101 E164.04105
G0 F9000 X16.329 Y191.560
;TYPE:SKIN
G1 F1980 X44.848 Y163.040 E165.38252
G0 F9000 X44.283 Y163.040
G1 F1980 X16.075 Y191.248 E166.70934
G0 F9000 X16.075 Y190.682
G1 F1980 X43.717 Y163.040 E168.00953
G0 F9000 X43.151 Y163.040
G1 F1980 X16.075 Y190.116 E169.28310
G0 F9000 X16.075 Y189.551
G1 F1980 X42.586 Y163.040 E170.53010
G0 F9000 X42.020 Y163.040
G1 F1980 X16.075 Y188.985 E171.75047
G0 F9000 X16.075 Y188.419
G1 F1980 X41.454 Y163.040 E172.94422
G0 F9000 X40.889 Y163.040
G1 F1980 X16.075 Y187.854 E174.11140
G0 F9000 X16.075 Y187.288
G1 F1980 X40.323 Y163.040 E175.25195
G0 F9000 X45.414 Y163.040
G1 F1980 X16.894 Y191.560 E176.59344
G0 F9000 X17.460 Y191.560
G1 F1980 X45.980 Y163.040 E177.93493
G0 F9000 X46.546 Y163.040
G1 F1980 X18.026 Y191.560 E179.27643
G0 F9000 X18.591 Y191.560
G1 F1980 X47.111 Y163.040 E180.61792
G0 F9000 X47.677 Y163.040
G1 F1980 X19.157 Y191.560 E181.95941
G0 F9000 X19.723 Y191.560
G1 F1980 X48.243 Y163.040 E183.30091
G0 F9000 X48.808 Y163.040
G1 F1980 X20.289 Y191.560 E184.64238
G0 F9000 X20.854 Y191.560
G1 F1980 X49.374 Y163.040 E185.98387
G0 F9000 X49.940 Y163.040
G1 F1980 X21.420 Y191.560 E187.32536
G0 F9000 X21.986 Y191.560
G1 F1980 X50.505 Y163.040 E188.66683
G0 F9000 X51.071 Y163.040
G1 F1980 X22.551 Y191.560 E190.00833
G0 F9000 X23.117 Y191.560
G1 F1980 X51.637 Y163.040 E191.34982
G0 F9000 X52.202 Y163.040
G1 F1980 X23.683 Y191.560 E192.69129
G0 F9000 X24.248 Y191.560
G1 F1980 X52.768 Y163.040 E194.03278
G0 F9000 X53.334 Y163.040
G1 F1980 X24.814 Y191.560 E195.37428
G0 F9000 X25.380 Y191.560
G1 F1980 X53.594 Y163.345 E196.70140
G0 F9000 X53.594 Y163.911
G1 F1980 X25.945 Y191.560 E198.00193
G0 F9000 X26.511 Y191.560
G1 F1980 X53.594 Y164.477 E199.27583
G0 F9000 X53.594 Y165.042
G1 F1980 X27.077 Y191.560 E200.52313
G0 F9000 X27.642 Y191.560
G1 F1980 X53.594 Y165.608 E201.74383
G0 F9000 X53.594 Y166.174
G1 F1980 X28.208 Y191.560 E202.93791
G0 F9000 X28.774 Y191.560
G1 F1980 X53.594 Y166.740 E204.10537
G0 F9000 X53.594 Y167.305
G1 F1980 X29.339 Y191.560 E205.24625
G0 F9000 X29.905 Y191.560
G1 F1980 X53.594 Y167.871 E206.36051
G0 F9000 X53.594 Y168.437
G1 F1980 X30.471 Y191.560 E207.44814
G0 F9000 X31.037 Y191.560
G1 F1980 X53.594 Y169.002 E208.50918
G0 F9000 X53.594 Y169.568
G1 F1980 X31.602 Y191.560 E209.54361
G0 F9000 X32.168 Y191.560
G1 F1980 X53.594 Y170.134 E210.55143
G0 F9000 X53.594 Y170.699
G1 F1980 X32.734 Y191.560 E211.53264
G0 F9000 X33.299 Y191.560
G1 F1980 X53.594 Y171.265 E212.48726
G0 F9000 X53.594 Y171.831
G1 F1980 X33.865 Y191.560 E213.41525
G0 F9000 X34.431 Y191.560
G1 F1980 X53.594 Y172.396 E214.31664
G0 F9000 X53.594 Y172.962
G1 F1980 X34.996 Y191.560 E215.19143
G0 F9000 X35.562 Y191.560
G1 F1980 X53.594 Y173.528 E216.03960
G0 F9000 X53.594 Y174.093
G1 F1980 X36.128 Y191.560 E216.86117
G0 F9000 X36.693 Y191.560
G1 F1980 X53.594 Y174.659 E217.65614
G0 F9000 X53.594 Y175.225
G1 F1980 X37.259 Y191.560 E218.42449
G0 F9000 X37.825 Y191.560
G1 F1980 X53.594 Y175.790 E219.16624
G0 F9000 X53.594 Y176.356
G1 F1980 X38.390 Y191.560 E219.88139
G0 F9000 X38.956 Y191.560
G1 F1980 X53.594 Y176.922 E220.56992
G0 F9000 X53.594 Y177.488
G1 F1980 X39.522 Y191.560 E221.23182
G0 F9000 X40.088 Y191.560
G1 F1980 X53.594 Y178.053 E221.86713
G0 F9000 X53.594 Y178.619
G1 F1980 X40.653 Y191.560 E222.47583
G0 F9000 X41.219 Y191.560
G1 F1980 X53.594 Y179.185 E223.05791
G0 F9000 X53.594 Y179.750
G1 F1980 X41.785 Y191.560 E223.61340
G0 F9000 X42.350 Y191.560
G1 F1980 X53.594 Y180.316 E224.14228
G0 F9000 X53.594 Y180.882
G1 F1980 X42.916 Y191.560 E224.64454
G0 F9000 X43.482 Y191.560
G1 F1980 X53.594 Y181.447 E225.12020
G0 F9000 X53.594 Y182.013
G1 F1980 X44.047 Y191.560 E225.56926
G0 F9000 X44.613 Y191.560
G1 F1980 X53.594 Y182.579 E225.99170
G0 F9000 X53.594 Y183.144
G1 F1980 X45.179 Y191.560 E226.38754
G0 F9000 X45.744 Y191.560
G1 F1980 X53.594 Y183.710 E226.75678
G0 F9000 X53.594 Y184.276
G1 F1980 X46.310 Y191.560 E227.09940
G0 F9000 X46.876 Y191.560
G1 F1980 X53.594 Y184.841 E227.41541
G0 F9000 X53.594 Y185.407
G1 F1980 X47.441 Y191.560 E227.70483
G0 F9000 X48.007 Y191.560
G1 F1980 X53.594 Y185.973 E227.96763
G0 F9000 X53.594 Y186.539
G1 F1980 X48.573 Y191.560 E228.20380
G0 F9000 X49.138 Y191.560
G1 F1980 X53.594 Y187.104 E228.41340
G0 F9000 X53.594 Y187.670
G1 F1980 X49.704 Y191.560 E228.59637
G0 F9000 X50.270 Y191.560
G1 F1980 X53.594 Y188.236 E228.75272
G0 F9000 X53.594 Y188.801
G1 F1980 X50.836 Y191.560 E228.88247
G0 F9000 X51.401 Y191.560
G1 F1980 X53.594 Y189.367 E228.98562
G0 F9000 X53.594 Y189.933
G1 F1980 X51.967 Y191.560 E229.06215
G0 F9000 X52.533 Y191.560
G1 F1980 X53.594 Y190.498 E229.11208
G0 F9000 X53.594 Y191.064
G1 F1980 X53.098 Y191.560 E229.13541
G0 F9000 X39.757 Y163.040
G1 F1980 X16.075 Y186.722 E230.24934
G0 F9000 X16.075 Y186.157
G1 F1980 X39.192 Y163.040 E231.33670
G0 F9000 X38.626 Y163.040
G1 F1980 X16.075 Y185.591 E232.39743
G0 F9000 X16.075 Y185.025
G1 F1980 X38.060 Y163.040 E233.43153
G0 F9000 X37.495 Y163.040
G1 F1980 X16.075 Y184.460 E234.43906
G0 F9000 X16.075 Y183.894
G1 F1980 X36.929 Y163.040 E235.41997
G0 F9000 X36.363 Y163.040
G1 F1980 X16.075 Y183.328 E236.37426
G0 F9000 X16.075 Y182.763
G1 F1980 X35.797 Y163.040 E237.30194
G0 F9000 X35.232 Y163.040
G1 F1980 X16.075 Y182.197 E238.20303
G0 F9000 X16.075 Y181.631
G1 F1980 X34.666 Y163.040 E239.07749
G0 F9000 X34.100 Y163.040
G1 F1980 X16.075 Y181.066 E239.92536
G0 F9000 X16.075 Y180.500
G1 F1980 X33.535 Y163.040 E240.74662
G0 F9000 X32.969 Y163.040
G1 F1980 X16.075 Y179.934 E241.54126
G0 F9000 X16.075 Y179.368
G1 F1980 X32.403 Y163.040 E242.30928
G0 F9000 X31.838 Y163.040
G1 F1980 X16.075 Y178.803 E243.05073
G0 F9000 X16.075 Y178.237
G1 F1980 X31.272 Y163.040 E243.76555
G0 F9000 X30.706 Y163.040
G1 F1980 X16.075 Y177.671 E244.45374
G0 F9000 X16.075 Y177.106
G1 F1980 X30.141 Y163.040 E245.11537
G0 F9000 X29.575 Y163.040
G1 F1980 X16.075 Y176.540 E245.75036
G0 F9000 X16.075 Y175.974
G1 F1980 X29.009 Y163.040 E246.35874
G0 F9000 X28.444 Y163.040
G1 F1980 X16.075 Y175.409 E246.94054
G0 F9000 X16.075 Y174.843
G1 F1980 X27.878 Y163.040 E247.49572
G0 F9000 X27.312 Y163.040
G1 F1980 X16.075 Y174.277 E248.02427
G0 F9000 X16.075 Y173.712
G1 F1980 X26.747 Y163.040 E248.52625
G0 F9000 X26.181 Y163.040
G1 F1980 X16.075 Y173.146 E249.00160
G0 F9000 X16.075 Y172.580
G1 F1980 X25.615 Y163.040 E249.45034
G0 F9000 X25.049 Y163.040
G1 F1980 X16.075 Y172.015 E249.87247
G0 F9000 X16.075 Y171.449
G1 F1980 X24.484 Y163.040 E250.26800
G0 F9000 X23.918 Y163.040
G1 F1980 X16.075 Y170.883 E250.63691
G0 F9000 X16.075 Y170.317
G1 F1980 X23.352 Y163.040 E250.97920
G0 F9000 X22.787 Y163.040
G1 F1980 X16.075 Y169.752 E251.29491
G0 F9000 X16.075 Y169.186
G1 F1980 X22.221 Y163.040 E251.58400
G0 F9000 X21.655 Y163.040
G1 F1980 X16.075 Y168.620 E251.84647
G0 F9000 X16.075 Y168.055
G1 F1980 X21.090 Y163.040 E252.08236
G0 F9000 X20.524 Y163.040
G1 F1980 X16.075 Y167.489 E252.29163
G0 F9000 X16.075 Y166.923
G1 F1980 X19.958 Y163.040 E252.47427
