;Generated with Cura_SteamEngine 15.01
; Default start code
G28 ; Home extruder
G1 Z15 F100
M107 ; Turn off fan
G90 ; Absolute positioning
M82 ; Extruder in absolute mode
M190 S50
; Activate all used extruder
M104 T0 S205
G92 E0 ; Reset extruder position
; Wait for all used extruders to reach temperature
M109 T0 S205
;Layer count: 10
;LAYER:0
M107
G0 F9000 X28.800 Y33.300 Z0.300
;TYPE:SKIRT
G1 F1800 X71.200 Y33.300 E2.11534
G1 X71.200 Y47.200 E2.80882
G1 X51.799 Y47.200 E3.77674
G1 X51.799 Y52.800 E4.05612
G1 X71.200 Y52.800 E5.02404
G1 X71.200 Y66.700 E5.71752
G1 X28.800 Y66.700 E7.83286
G1 X28.800 Y33.300 E9.49919
G1 F2400 E5.49919
G0 F9000 X32.600 Y37.100
;TYPE:WALL-INNER
G1 F2400 E9.49919
G1 F1800 X67.400 Y37.100 E11.23537
G1 X67.400 Y43.400 E11.54968
G1 X47.999 Y43.400 E12.51760
G1 X47.999 Y56.600 E13.17615
G1 X67.400 Y56.600 E14.14407
G1 X67.400 Y62.900 E14.45838
G1 X32.600 Y62.900 E16.19456
G1 X32.600 Y37.100 E17.48173
G0 F9000 X32.200 Y36.700
;TYPE:WALL-OUTER
G1 F1800 X67.800 Y36.700 E19.25782
G1 X67.800 Y43.800 E19.61204
G1 X48.399 Y43.800 E20.57996
G1 X48.399 Y56.200 E21.19860
G1 X67.800 Y56.200 E22.16652
G1 X67.800 Y63.300 E22.52074
G1 X32.200 Y63.300 E24.29683
G1 X32.200 Y36.700 E25.62391
G0 F9000 X32.997 Y37.239
;TYPE:SKIN
G1 F1800 X47.859 Y52.101 E26.67250
G0 F9000 X47.859 Y51.536
G1 F1800 X33.562 Y37.239 E27.68123
G0 F9000 X34.128 Y37.239
G1 F1800 X47.859 Y50.970 E28.65003
G0 F9000 X47.859 Y50.404
G1 F1800 X34.694 Y37.239 E29.57889
G0 F9000 X35.259 Y37.239
G1 F1800 X47.858 Y49.838 E30.46782
G0 F9000 X47.858 Y49.272
G1 F1800 X35.825 Y37.239 E31.31681
G0 F9000 X36.391 Y37.239
G1 F1800 X47.858 Y48.706 E32.12587
G0 F9000 X47.858 Y48.141
G1 F1800 X36.956 Y37.239 E32.89506
G0 F9000 X37.522 Y37.239
G1 F1800 X47.858 Y47.575 E33.62433
G0 F9000 X47.858 Y47.009
G1 F1800 X38.088 Y37.239 E34.31365
G0 F9000 X38.653 Y37.239
G1 F1800 X47.858 Y46.444 E34.96311
G0 F9000 X47.858 Y45.878
G1 F1800 X39.219 Y37.239 E35.57264
G0 F9000 X39.785 Y37.239
G1 F1800 X47.858 Y45.312 E36.14224
G0 F9000 X47.858 Y44.747
G1 F1800 X40.351 Y37.239 E36.67193
G0 F9000 X40.916 Y37.239
G1 F1800 X47.858 Y44.181 E37.16173
G0 F9000 X47.858 Y43.615
G1 F1800 X41.482 Y37.239 E37.61159
G0 F9000 X42.048 Y37.239
G1 F1800 X48.068 Y43.260 E38.03637
G0 F9000 X48.634 Y43.260
G1 F1800 X42.613 Y37.239 E38.46118
G0 F9000 X43.179 Y37.239
G1 F1800 X49.199 Y43.260 E38.88596
G0 F9000 X49.765 Y43.260
G1 F1800 X43.745 Y37.239 E39.31074
G0 F9000 X44.310 Y37.239
G1 F1800 X50.331 Y43.260 E39.73555
G0 F9000 X50.896 Y43.260
G1 F1800 X44.876 Y37.239 E40.16033
G0 F9000 X45.442 Y37.239
G1 F1800 X51.462 Y43.260 E40.58511
G0 F9000 X52.028 Y43.260
G1 F1800 X46.007 Y37.239 E41.00992
G0 F9000 X46.573 Y37.239
G1 F1800 X52.593 Y43.260 E41.43470
G0 F9000 X53.159 Y43.260
G1 F1800 X47.139 Y37.239 E41.85948
G0 F9000 X47.704 Y37.239
G1 F1800 X53.725 Y43.260 E42.28430
G0 F9000 X54.290 Y43.260
G1 F1800 X48.270 Y37.239 E42.70907
G0 F9000 X48.836 Y37.239
G1 F1800 X54.856 Y43.260 E43.13385
G0 F9000 X55.422 Y43.260
G1 F1800 X49.402 Y37.239 E43.55863
G0 F9000 X49.967 Y37.239
G1 F1800 X55.988 Y43.260 E43.98345
G0 F9000 X56.553 Y43.260
G1 F1800 X50.533 Y37.239 E44.40822
G0 F9000 X51.099 Y37.239
G1 F1800 X57.119 Y43.260 E44.83300
G0 F9000 X57.685 Y43.260
G1 F1800 X51.664 Y37.239 E45.25782
G0 F9000 X52.230 Y37.239
G1 F1800 X58.250 Y43.260 E45.68260
G0 F9000 X58.816 Y43.260
G1 F1800 X52.796 Y37.239 E46.10738
G0 F9000 X53.361 Y37.239
G1 F1800 X59.382 Y43.260 E46.53219
G0 F9000 X59.947 Y43.260
G1 F1800 X53.927 Y37.239 E46.95697
G0 F9000 X54.493 Y37.239
G1 F1800 X60.513 Y43.260 E47.38175
G0 F9000 X61.079 Y43.260
G1 F1800 X55.058 Y37.239 E47.80656
G0 F9000 X55.624 Y37.239
G1 F1800 X61.644 Y43.260 E48.23134
G0 F9000 X62.210 Y43.260
G1 F1800 X56.190 Y37.239 E48.65612
G0 F9000 X56.755 Y37.239
G1 F1800 X62.776 Y43.260 E49.08093
G0 F9000 X63.341 Y43.260
G1 F1800 X57.321 Y37.239 E49.50571
G0 F9000 X57.887 Y37.239
G1 F1800 X63.907 Y43.260 E49.93049
G0 F9000 X64.473 Y43.260
G1 F1800 X58.452 Y37.239 E50.35530
G0 F9000 X59.018 Y37.239
G1 F1800 X65.038 Y43.260 E50.78008
G0 F9000 X65.604 Y43.260
G1 F1800 X59.584 Y37.239 E51.20486
G0 F9000 X60.150 Y37.239
G1 F1800 X66.170 Y43.260 E51.62964
G0 F9000 X66.736 Y43.260
G1 F1800 X60.715 Y37.239 E52.05445
G0 F9000 X61.281 Y37.239
G1 F1800 X67.259 Y43.217 E52.47623
G0 F9000 X67.259 Y42.651
G1 F1800 X61.847 Y37.239 E52.85808
G0 F9000 X62.412 Y37.239
G1 F1800 X67.259 Y42.086 E53.20006
G0 F9000 X67.259 Y41.520
G1 F1800 X62.978 Y37.239 E53.50211
G0 F9000 X63.544 Y37.239
G1 F1800 X67.259 Y40.954 E53.76422
G0 F9000 X67.259 Y40.389
G1 F1800 X64.109 Y37.239 E53.98647
G0 F9000 X64.675 Y37.239
G1 F1800 X67.259 Y39.823 E54.16879
G0 F9000 X67.259 Y39.257
G1 F1800 X65.241 Y37.239 E54.31117
G0 F9000 X65.806 Y37.239
G1 F1800 X67.259 Y38.692 E54.41369
G0 F9000 X67.259 Y38.126
G1 F1800 X66.372 Y37.239 E54.47627
G0 F9000 X66.938 Y37.239
G1 F1800 X67.259 Y37.560 E54.49892
G0 F9000 X48.058 Y43.459
G0 X48.058 Y56.541
G0 X66.639 Y56.740
G1 F1800 X67.259 Y57.359 E54.54263
G0 F9000 X67.259 Y57.925
G1 F1800 X66.074 Y56.740 E54.62623
G0 F9000 X65.508 Y56.740
G1 F1800 X67.259 Y58.491 E54.74978
G0 F9000 X67.259 Y59.056
G1 F1800 X64.942 Y56.740 E54.91322
G0 F9000 X64.377 Y56.740
G1 F1800 X67.259 Y59.622 E55.11656
G0 F9000 X67.259 Y60.188
G1 F1800 X63.811 Y56.740 E55.35983
G0 F9000 X63.245 Y56.740
G1 F1800 X67.259 Y60.753 E55.64301
G0 F9000 X67.259 Y61.319
G1 F1800 X62.680 Y56.740 E55.96608
G0 F9000 X62.114 Y56.740
G1 F1800 X67.259 Y61.885 E56.32909
G0 F9000 X67.259 Y62.450
G1 F1800 X61.548 Y56.740 E56.73200
G0 F9000 X60.983 Y56.740
G1 F1800 X67.002 Y62.759 E57.15667
G0 F9000 X66.436 Y62.759
G1 F1800 X60.417 Y56.740 E57.58134
G0 F9000 X59.851 Y56.740
G1 F1800 X65.871 Y62.759 E58.00605
G0 F9000 X65.305 Y62.759
G1 F1800 X59.285 Y56.740 E58.43076
G0 F9000 X58.720 Y56.740
G1 F1800 X64.739 Y62.759 E58.85543
G0 F9000 X64.174 Y62.759
G1 F1800 X58.154 Y56.740 E59.28014
G0 F9000 X57.588 Y56.740
G1 F1800 X63.608 Y62.759 E59.70485
G0 F9000 X63.042 Y62.759
G1 F1800 X57.022 Y56.739 E60.12959
G0 F9000 X56.456 Y56.739
G1 F1800 X62.477 Y62.759 E60.55437
G0 F9000 X61.911 Y62.759
G1 F1800 X55.891 Y56.739 E60.97911
G0 F9000 X55.325 Y56.739
G1 F1800 X61.345 Y62.759 E61.40386
G0 F9000 X60.780 Y62.759
G1 F1800 X54.759 Y56.739 E61.82864
G0 F9000 X54.194 Y56.739
G1 F1800 X60.214 Y62.759 E62.25338
G0 F9000 X59.648 Y62.759
G1 F1800 X53.628 Y56.739 E62.67812
G0 F9000 X53.062 Y56.739
G1 F1800 X59.083 Y62.759 E63.10290
G0 F9000 X58.517 Y62.759
G1 F1800 X52.497 Y56.739 E63.52764
G0 F9000 X51.931 Y56.739
G1 F1800 X57.951 Y62.759 E63.95239
G0 F9000 X57.385 Y62.759
G1 F1800 X51.365 Y56.739 E64.37713
G0 F9000 X50.799 Y56.739
G1 F1800 X56.820 Y62.759 E64.80191
G0 F9000 X56.254 Y62.759
G1 F1800 X50.234 Y56.739 E65.22665
G0 F9000 X49.668 Y56.739
G1 F1800 X55.688 Y62.759 E65.65140
G0 F9000 X55.123 Y62.759
G1 F1800 X49.102 Y56.739 E66.07618
G0 F9000 X48.537 Y56.739
G1 F1800 X54.557 Y62.759 E66.50092
G0 F9000 X53.991 Y62.759
G1 F1800 X47.971 Y56.739 E66.92566
G0 F9000 X47.859 Y56.627
G1 F1800 X32.739 Y41.507 E67.99246
G0 F9000 X32.739 Y40.942
G1 F1800 X47.859 Y56.061 E69.05922
G0 F9000 X47.859 Y55.495
G1 F1800 X32.739 Y40.376 E70.12599
G0 F9000 X32.739 Y42.073
G1 F1800 X53.426 Y62.759 E71.58553
G0 F9000 X52.860 Y62.759
G1 F1800 X32.739 Y42.639 E73.00514
G0 F9000 X32.739 Y43.204
G1 F1800 X52.294 Y62.759 E74.38485
G0 F9000 X51.729 Y62.759
G1 F1800 X32.739 Y43.770 E75.72466
G0 F9000 X32.739 Y44.336
G1 F1800 X51.163 Y62.759 E77.02454
G0 F9000 X50.597 Y62.759
G1 F1800 X32.739 Y44.901 E78.28452
G0 F9000 X32.739 Y45.467
G1 F1800 X50.032 Y62.759 E79.50460
G0 F9000 X49.465 Y62.759
G1 F1800 X32.739 Y46.033 E80.68471
G0 F9000 X32.739 Y46.599
G1 F1800 X48.899 Y62.759 E81.82488
G0 F9000 X48.334 Y62.759
G1 F1800 X32.739 Y47.164 E82.92519
G0 F9000 X32.739 Y47.730
G1 F1800 X47.768 Y62.759 E83.98557
G0 F9000 X47.202 Y62.759
G1 F1800 X32.739 Y48.296 E85.00601
G0 F9000 X32.739 Y48.861
G1 F1800 X46.637 Y62.759 E85.98659
G0 F9000 X46.071 Y62.759
G1 F1800 X32.739 Y49.427 E86.92724
G0 F9000 X32.739 Y49.993
G1 F1800 X45.505 Y62.759 E87.82795
G0 F9000 X44.940 Y62.759
G1 F1800 X32.739 Y50.558 E88.68879
G0 F9000 X32.739 Y51.124
G1 F1800 X44.374 Y62.759 E89.50971
G0 F9000 X43.808 Y62.759
G1 F1800 X32.739 Y51.690 E90.29068
G0 F9000 X32.739 Y52.255
G1 F1800 X43.243 Y62.759 E91.03180
G0 F9000 X42.677 Y62.759
G1 F1800 X32.739 Y52.821 E91.73298
G0 F9000 X32.739 Y53.387
G1 F1800 X42.111 Y62.759 E92.39422
G0 F9000 X41.546 Y62.759
G1 F1800 X32.739 Y53.952 E93.01560
G0 F9000 X32.739 Y54.518
G1 F1800 X40.980 Y62.759 E93.59705
G0 F9000 X40.414 Y62.759
G1 F1800 X32.739 Y55.084 E94.13856
G0 F9000 X32.739 Y55.650
G1 F1800 X39.849 Y62.759 E94.64018
G0 F9000 X39.283 Y62.759
G1 F1800 X32.739 Y56.215 E95.10189
G0 F9000 X32.739 Y56.781
G1 F1800 X38.717 Y62.759 E95.52367
G0 F9000 X38.151 Y62.759
G1 F1800 X32.739 Y57.347 E95.90552
G0 F9000 X32.739 Y57.912
G1 F1800 X37.586 Y62.759 E96.24750
G0 F9000 X37.020 Y62.759
G1 F1800 X32.739 Y58.478 E96.54955
G0 F9000 X32.739 Y59.044
G1 F1800 X36.454 Y62.759 E96.81166
G0 F9000 X35.889 Y62.759
G1 F1800 X32.739 Y59.609 E97.03391
G0 F9000 X32.739 Y60.175
G1 F1800 X35.323 Y62.759 E97.21623
G0 F9000 X34.757 Y62.759
G1 F1800 X32.739 Y60.741 E97.35861
G0 F9000 X32.739 Y61.306
G1 F1800 X34.192 Y62.759 E97.46112
G0 F9000 X33.626 Y62.759
G1 F1800 X32.739 Y61.872 E97.52371
G0 F9000 X32.739 Y62.438
G1 F1800 X33.060 Y62.759 E97.54635
G0 F9000 X47.859 Y54.930
G1 F1800 X32.739 Y39.810 E98.61315
G0 F9000 X32.739 Y39.245
G1 F1800 X47.859 Y54.364 E99.67991
G0 F9000 X47.859 Y53.798
G1 F1800 X32.739 Y38.679 E100.74668
G0 F9000 X32.739 Y38.113
G1 F1800 X47.859 Y53.233 E101.81347
G0 F9000 X47.859 Y52.667
G1 F1800 X32.739 Y37.548 E102.88024
;LAYER:1
M106 S63
G0 F9000 X32.600 Y37.100 Z0.500
;TYPE:WALL-INNER
G1 F2220 X67.400 Y37.100 E104.03769
G1 X67.400 Y43.400 E104.24723
G1 X47.999 Y43.400 E104.89251
G1 X47.999 Y56.600 E105.33154
G1 X67.400 Y56.600 E105.97682
G1 X67.400 Y62.900 E106.18636
G1 X32.600 Y62.900 E107.34381
G1 X32.600 Y37.100 E108.20193
G0 F9000 X32.200 Y36.700
;TYPE:WALL-OUTER
G1 F1980 X67.800 Y36.700 E109.38599
G1 X67.800 Y43.800 E109.62213
G1 X48.399 Y43.800 E110.26741
G1 X48.399 Y56.200 E110.67984
G1 X67.800 Y56.200 E111.32512
G1 X67.800 Y63.300 E111.56127
G1 X32.200 Y63.300 E112.74533
G1 X32.200 Y36.700 E113.63005
G0 F9000 X32.740 Y37.687
;TYPE:SKIN
G1 F1980 X33.188 Y37.239 E113.65112
G0 F9000 X33.754 Y37.239
G1 F1980 X32.740 Y38.253 E113.69881
G0 F9000 X32.740 Y38.818
G1 F1980 X34.320 Y37.239 E113.77311
G0 F9000 X34.885 Y37.239
G1 F1980 X32.740 Y39.384 E113.87400
G0 F9000 X32.740 Y39.950
G1 F1980 X35.451 Y37.239 E114.00152
G0 F9000 X36.017 Y37.239
G1 F1980 X32.740 Y40.515 E114.15564
G0 F9000 X32.740 Y41.081
G1 F1980 X36.582 Y37.239 E114.33635
G0 F9000 X37.148 Y37.239
G1 F1980 X32.740 Y41.647 E114.54369
G0 F9000 X32.740 Y42.212
G1 F1980 X37.714 Y37.239 E114.77763
G0 F9000 X38.279 Y37.239
G1 F1980 X32.740 Y42.778 E115.03817
G0 F9000 X32.740 Y43.344
G1 F1980 X38.845 Y37.239 E115.32533
G0 F9000 X39.411 Y37.239
G1 F1980 X32.740 Y43.909 E115.63909
G0 F9000 X32.740 Y44.475
G1 F1980 X39.976 Y37.239 E115.97945
G0 F9000 X40.542 Y37.239
G1 F1980 X32.740 Y45.041 E116.34643
G0 F9000 X32.740 Y45.606
G1 F1980 X41.108 Y37.239 E116.74001
G0 F9000 X41.674 Y37.239
G1 F1980 X32.740 Y46.172 E117.16021
G0 F9000 X32.740 Y46.738
G1 F1980 X42.239 Y37.239 E117.60702
G0 F9000 X42.805 Y37.239
G1 F1980 X32.740 Y47.304 E118.08045
G0 F9000 X32.740 Y47.869
G1 F1980 X43.371 Y37.239 E118.58047
G0 F9000 X43.936 Y37.239
G1 F1980 X32.740 Y48.435 E119.10710
G0 F9000 X32.740 Y49.001
G1 F1980 X44.502 Y37.239 E119.66035
G0 F9000 X45.068 Y37.239
G1 F1980 X32.740 Y49.566 E120.24019
G0 F9000 X32.740 Y50.132
G1 F1980 X45.633 Y37.239 E120.84664
G0 F9000 X46.199 Y37.239
G1 F1980 X32.740 Y50.698 E121.47971
G0 F9000 X32.740 Y51.263
G1 F1980 X46.765 Y37.239 E122.13938
G0 F9000 X47.330 Y37.239
G1 F1980 X32.740 Y51.829 E122.82565
G0 F9000 X32.740 Y52.395
G1 F1980 X47.896 Y37.239 E123.53854
G0 F9000 X48.462 Y37.239
G1 F1980 X32.740 Y52.960 E124.27803
G0 F9000 X32.740 Y53.526
G1 F1980 X49.027 Y37.239 E125.04412
G0 F9000 X49.593 Y37.239
G1 F1980 X32.740 Y54.092 E125.83684
G0 F9000 X32.740 Y54.657
G1 F1980 X50.159 Y37.239 E126.65615
G0 F9000 X50.725 Y37.239
G1 F1980 X32.740 Y55.223 E127.50208
G0 F9000 X32.740 Y55.789
G1 F1980 X51.290 Y37.239 E128.37462
G0 F9000 X51.856 Y37.239
G1 F1980 X32.740 Y56.354 E129.27375
G0 F9000 X32.740 Y56.920
G1 F1980 X52.422 Y37.239 E130.19951
G0 F9000 X52.987 Y37.239
G1 F1980 X32.740 Y57.486 E131.15187
G0 F9000 X32.740 Y58.052
G1 F1980 X53.553 Y37.239 E132.13085
G0 F9000 X54.119 Y37.239
G1 F1980 X48.098 Y43.260 E132.41406
G0 F9000 X47.857 Y43.500
G1 F1980 X32.740 Y58.617 E133.12511
G0 F9000 X32.740 Y59.183
G1 F1980 X47.857 Y44.066 E133.83617
G0 F9000 X47.857 Y44.631
G1 F1980 X32.740 Y59.749 E134.54725
G0 F9000 X32.740 Y60.314
G1 F1980 X47.857 Y45.197 E135.25831
G0 F9000 X47.857 Y45.763
G1 F1980 X32.740 Y60.880 E135.96937
G0 F9000 X32.740 Y61.446
G1 F1980 X47.857 Y46.328 E136.68045
G0 F9000 X47.857 Y46.894
G1 F1980 X32.740 Y62.011 E137.39151
G0 F9000 X32.740 Y62.577
G1 F1980 X47.857 Y47.460 E138.10256
G0 F9000 X47.857 Y48.025
G1 F1980 X33.123 Y62.759 E138.79561
G0 F9000 X33.689 Y62.759
G1 F1980 X47.857 Y48.591 E139.46202
G0 F9000 X47.857 Y49.157
G1 F1980 X34.255 Y62.759 E140.10182
G0 F9000 X34.820 Y62.759
G1 F1980 X47.857 Y49.723 E140.71502
G0 F9000 X47.858 Y50.288
G1 F1980 X35.386 Y62.759 E141.30164
G0 F9000 X35.952 Y62.759
G1 F1980 X47.858 Y50.853 E141.86166
G0 F9000 X47.858 Y51.419
G1 F1980 X36.517 Y62.759 E142.39508
G0 F9000 X37.083 Y62.759
G1 F1980 X47.858 Y51.985 E142.90188
G0 F9000 X47.858 Y52.550
G1 F1980 X37.649 Y62.759 E143.38208
G0 F9000 X38.214 Y62.759
G1 F1980 X47.858 Y53.116 E143.83568
G0 F9000 X47.858 Y53.682
G1 F1980 X38.780 Y62.759 E144.26266
G0 F9000 X39.346 Y62.759
G1 F1980 X47.858 Y54.247 E144.66304
G0 F9000 X47.858 Y54.813
G1 F1980 X39.911 Y62.759 E145.03682
G0 F9000 X40.477 Y62.759
G1 F1980 X47.858 Y55.379 E145.38397
G0 F9000 X47.858 Y55.944
G1 F1980 X41.043 Y62.759 E145.70453
G0 F9000 X41.608 Y62.759
G1 F1980 X47.858 Y56.510 E145.99849
G0 F9000 X48.195 Y56.738
G1 F1980 X42.174 Y62.759 E146.28170
G0 F9000 X42.740 Y62.759
G1 F1980 X48.761 Y56.738 E146.56491
G0 F9000 X49.327 Y56.738
G1 F1980 X43.306 Y62.759 E146.84812
G0 F9000 X43.871 Y62.759
G1 F1980 X49.892 Y56.738 E147.13133
G0 F9000 X50.458 Y56.738
G1 F1980 X44.437 Y62.759 E147.41454
G0 F9000 X45.003 Y62.759
G1 F1980 X51.024 Y56.738 E147.69774
G0 F9000 X51.589 Y56.738
G1 F1980 X45.568 Y62.759 E147.98095
G0 F9000 X46.134 Y62.759
G1 F1980 X52.155 Y56.738 E148.26416
G0 F9000 X52.721 Y56.738
G1 F1980 X46.700 Y62.759 E148.54737
G0 F9000 X47.265 Y62.759
G1 F1980 X53.286 Y56.738 E148.83058
G0 F9000 X53.852 Y56.738
G1 F1980 X47.831 Y62.759 E149.11379
G0 F9000 X48.397 Y62.759
G1 F1980 X54.418 Y56.738 E149.39700
G0 F9000 X54.983 Y56.738
G1 F1980 X48.962 Y62.759 E149.68021
G0 F9000 X49.528 Y62.759
G1 F1980 X55.549 Y56.738 E149.96342
G0 F9000 X56.115 Y56.738
G1 F1980 X50.093 Y62.760 E150.24668
G0 F9000 X50.659 Y62.760
G1 F1980 X56.680 Y56.738 E150.52991
G0 F9000 X57.246 Y56.738
G1 F1980 X51.224 Y62.760 E150.81317
G0 F9000 X51.790 Y62.760
G1 F1980 X57.811 Y56.739 E151.09638
G0 F9000 X58.377 Y56.739
G1 F1980 X52.356 Y62.760 E151.37958
G0 F9000 X52.921 Y62.760
G1 F1980 X58.943 Y56.739 E151.66282
G0 F9000 X59.508 Y56.739
G1 F1980 X53.487 Y62.760 E151.94603
G0 F9000 X54.053 Y62.760
G1 F1980 X60.074 Y56.739 E152.22924
G0 F9000 X60.640 Y56.739
G1 F1980 X54.619 Y62.760 E152.51245
