;Generated with Cura_SteamEngine 15.01
; Default start code
G28 ; Home extruder
G1 Z15 F100
M107 ; Turn off fan
G90 ; Absolute positioning
M82 ; Extruder in absolute mode
M190 S60
; Activate all used extruder
M104 T0 S210
G92 E0 ; Reset extruder position
; Wait for all used extruders to reach temperature
M109 T0 S210
;Layer count: 10
;LAYER:0
M107
G0 F9000 X29.218 Y21.498 Z0.300
;TYPE:SKIRT
G1 F1800 X74.618 Y21.498 E2.26502
G1 X74.618 Y35.398 E2.95849
G1 X57.168 Y35.398 E3.82907
G1 X57.168 Y42.998 E4.20824
G1 X74.618 Y42.998 E5.07882
G1 X74.618 Y57.898 E5.82219
G1 X29.218 Y57.898 E8.08720
G1 X29.218 Y21.498 E9.90321
G1 F2400 E5.90321
G0 F9000 X33.018 Y25.298
;TYPE:WALL-INNER
G1 F2400 E9.90321
G1 F1800 X70.818 Y25.298 E11.78905
G1 X70.818 Y31.598 E12.10336
G1 X53.368 Y31.598 E12.97395
G1 X53.368 Y46.798 E13.73228
G1 X70.818 Y46.798 E14.60286
G1 X70.818 Y54.098 E14.96706
G1 X33.018 Y54.098 E16.85291
G1 X33.018 Y25.298 E18.28975
G0 F9000 X32.618 Y24.898
;TYPE:WALL-OUTER
G1 F1800 X71.218 Y24.898 E20.21551
G1 X71.218 Y31.998 E20.56973
G1 X53.768 Y31.998 E21.44031
G1 X53.768 Y46.398 E22.15873
G1 X71.218 Y46.398 E23.02932
G1 X71.218 Y54.498 E23.43343
G1 X32.618 Y54.498 E25.35919
G1 X32.618 Y24.898 E26.83594
G0 F9000 X33.156 Y25.520
;TYPE:SKIN
G1 F1800 X53.227 Y45.590 E28.25202
G0 F9000 X53.227 Y45.025
G1 F1800 X33.640 Y25.438 E29.63399
G0 F9000 X34.206 Y25.438
G1 F1800 X53.227 Y44.459 E30.97603
G0 F9000 X53.227 Y43.893
G1 F1800 X34.771 Y25.438 E32.27816
G0 F9000 X35.337 Y25.438
G1 F1800 X53.227 Y43.327 E33.54036
G0 F9000 X53.227 Y42.762
G1 F1800 X35.903 Y25.438 E34.76266
G0 F9000 X36.469 Y25.438
G1 F1800 X53.227 Y42.196 E35.94503
G0 F9000 X53.227 Y41.630
G1 F1800 X37.034 Y25.438 E37.08750
G0 F9000 X37.600 Y25.438
G1 F1800 X53.227 Y41.065 E38.19007
G0 F9000 X53.227 Y40.499
G1 F1800 X38.166 Y25.438 E39.25270
G0 F9000 X38.731 Y25.438
G1 F1800 X53.227 Y39.933 E40.27544
G0 F9000 X53.227 Y39.368
G1 F1800 X39.297 Y25.438 E41.25828
G0 F9000 X39.863 Y25.438
G1 F1800 X53.227 Y38.802 E42.20118
G0 F9000 X53.227 Y38.236
G1 F1800 X40.428 Y25.438 E43.10418
G0 F9000 X40.994 Y25.438
G1 F1800 X53.227 Y37.671 E43.96729
G0 F9000 X53.227 Y37.105
G1 F1800 X41.560 Y25.438 E44.79046
G0 F9000 X42.125 Y25.438
G1 F1800 X53.227 Y36.539 E45.57373
G0 F9000 X53.227 Y35.974
G1 F1800 X42.691 Y25.438 E46.31710
G0 F9000 X43.257 Y25.438
G1 F1800 X53.227 Y35.408 E47.02053
G0 F9000 X53.227 Y34.842
G1 F1800 X43.822 Y25.438 E47.68407
G0 F9000 X44.388 Y25.438
G1 F1800 X53.227 Y34.277 E48.30771
G0 F9000 X53.227 Y33.711
G1 F1800 X44.954 Y25.438 E48.89142
G0 F9000 X45.519 Y25.438
G1 F1800 X53.227 Y33.145 E49.43522
G0 F9000 X53.227 Y32.579
G1 F1800 X46.085 Y25.438 E49.93909
G0 F9000 X46.651 Y25.438
G1 F1800 X53.227 Y32.014 E50.40307
G0 F9000 X53.237 Y31.458
G1 F1800 X47.217 Y25.438 E50.82781
G0 F9000 X47.782 Y25.438
G1 F1800 X53.803 Y31.458 E51.25259
G0 F9000 X54.368 Y31.458
G1 F1800 X48.348 Y25.438 E51.67733
G0 F9000 X48.914 Y25.438
G1 F1800 X54.934 Y31.458 E52.10208
G0 F9000 X55.500 Y31.458
G1 F1800 X49.479 Y25.438 E52.52685
G0 F9000 X50.045 Y25.438
G1 F1800 X56.065 Y31.458 E52.95160
G0 F9000 X56.631 Y31.458
G1 F1800 X50.611 Y25.438 E53.37634
G0 F9000 X51.176 Y25.438
G1 F1800 X57.197 Y31.458 E53.80112
G0 F9000 X57.762 Y31.458
G1 F1800 X51.742 Y25.438 E54.22586
G0 F9000 X52.308 Y25.438
G1 F1800 X58.328 Y31.458 E54.65061
G0 F9000 X58.894 Y31.458
G1 F1800 X52.873 Y25.438 E55.07539
G0 F9000 X53.439 Y25.438
G1 F1800 X59.459 Y31.458 E55.50013
G0 F9000 X60.025 Y31.458
G1 F1800 X54.005 Y25.438 E55.92487
G0 F9000 X54.570 Y25.438
G1 F1800 X60.591 Y31.458 E56.34965
G0 F9000 X61.156 Y31.458
G1 F1800 X55.136 Y25.438 E56.77440
G0 F9000 X55.702 Y25.438
G1 F1800 X61.722 Y31.458 E57.19914
G0 F9000 X62.288 Y31.458
G1 F1800 X56.268 Y25.438 E57.62388
G0 F9000 X56.833 Y25.438
G1 F1800 X62.854 Y31.458 E58.04866
G0 F9000 X63.419 Y31.458
G1 F1800 X57.399 Y25.438 E58.47341
G0 F9000 X57.965 Y25.438
G1 F1800 X63.985 Y31.458 E58.89815
G0 F9000 X64.551 Y31.458
G1 F1800 X58.530 Y25.438 E59.32293
G0 F9000 X59.096 Y25.438
G1 F1800 X65.116 Y31.458 E59.74767
G0 F9000 X65.682 Y31.458
G1 F1800 X59.662 Y25.438 E60.17241
G0 F9000 X60.227 Y25.438
G1 F1800 X66.248 Y31.458 E60.59719
G0 F9000 X66.813 Y31.458
G1 F1800 X60.793 Y25.438 E61.02194
G0 F9000 X61.359 Y25.438
G1 F1800 X67.379 Y31.458 E61.44668
G0 F9000 X67.945 Y31.458
G1 F1800 X61.924 Y25.438 E61.87146
G0 F9000 X62.490 Y25.438
G1 F1800 X68.510 Y31.458 E62.29620
G0 F9000 X69.076 Y31.458
G1 F1800 X63.056 Y25.438 E62.72095
G0 F9000 X63.621 Y25.438
G1 F1800 X69.642 Y31.458 E63.14572
G0 F9000 X70.207 Y31.458
G1 F1800 X64.187 Y25.438 E63.57047
G0 F9000 X64.753 Y25.438
G1 F1800 X70.677 Y31.362 E63.98844
G0 F9000 X70.677 Y30.796
G1 F1800 X65.318 Y25.438 E64.36651
G0 F9000 X65.884 Y25.438
G1 F1800 X70.677 Y30.230 E64.70465
G0 F9000 X70.677 Y29.665
G1 F1800 X66.450 Y25.438 E65.00288
G0 F9000 X67.016 Y25.438
G1 F1800 X70.677 Y29.099 E65.26119
G0 F9000 X70.677 Y28.533
G1 F1800 X67.581 Y25.438 E65.47959
G0 F9000 X68.147 Y25.438
G1 F1800 X70.677 Y27.968 E65.65810
G0 F9000 X70.677 Y27.402
G1 F1800 X68.713 Y25.438 E65.79667
G0 F9000 X69.278 Y25.438
G1 F1800 X70.677 Y26.836 E65.89534
G0 F9000 X70.677 Y26.271
G1 F1800 X69.844 Y25.438 E65.95411
G0 F9000 X70.410 Y25.438
G1 F1800 X70.677 Y25.705 E65.97295
G0 F9000 X53.427 Y31.657
G0 X53.427 Y46.739
G0 X70.414 Y46.938
G1 F1800 X70.677 Y47.201 E65.99151
G0 F9000 X70.677 Y47.767
G1 F1800 X69.848 Y46.938 E66.05000
G0 F9000 X69.283 Y46.938
G1 F1800 X70.677 Y48.332 E66.14835
G0 F9000 X70.677 Y48.898
G1 F1800 X68.717 Y46.938 E66.28664
G0 F9000 X68.151 Y46.938
G1 F1800 X70.677 Y49.464 E66.46486
G0 F9000 X70.677 Y50.029
G1 F1800 X67.585 Y46.938 E66.68298
G0 F9000 X67.020 Y46.938
G1 F1800 X70.677 Y50.595 E66.94101
G0 F9000 X70.677 Y51.161
G1 F1800 X66.454 Y46.938 E67.23896
G0 F9000 X65.888 Y46.938
G1 F1800 X70.677 Y51.726 E67.57682
G0 F9000 X70.677 Y52.292
G1 F1800 X65.323 Y46.938 E67.95457
G0 F9000 X64.757 Y46.938
G1 F1800 X70.677 Y52.858 E68.37226
G0 F9000 X70.677 Y53.424
G1 F1800 X64.191 Y46.938 E68.82988
G0 F9000 X63.626 Y46.938
G1 F1800 X70.644 Y53.957 E69.32507
G0 F9000 X70.079 Y53.957
G1 F1800 X63.060 Y46.938 E69.82030
G0 F9000 X62.494 Y46.938
G1 F1800 X69.513 Y53.957 E70.31553
G0 F9000 X68.947 Y53.957
G1 F1800 X61.929 Y46.938 E70.81072
G0 F9000 X61.363 Y46.938
G1 F1800 X68.382 Y53.957 E71.30595
G0 F9000 X67.816 Y53.957
G1 F1800 X60.797 Y46.938 E71.80118
G0 F9000 X60.232 Y46.938
G1 F1800 X67.250 Y53.957 E72.29637
G0 F9000 X66.685 Y53.957
G1 F1800 X59.666 Y46.938 E72.79160
G0 F9000 X59.100 Y46.938
G1 F1800 X66.119 Y53.957 E73.28683
G0 F9000 X65.553 Y53.957
G1 F1800 X58.535 Y46.938 E73.78202
G0 F9000 X57.969 Y46.938
G1 F1800 X64.988 Y53.957 E74.27725
G0 F9000 X64.422 Y53.957
G1 F1800 X57.403 Y46.938 E74.77248
G0 F9000 X56.837 Y46.938
G1 F1800 X63.856 Y53.957 E75.26771
G0 F9000 X63.291 Y53.957
G1 F1800 X56.272 Y46.938 E75.76294
G0 F9000 X55.706 Y46.938
G1 F1800 X62.725 Y53.957 E76.25816
G0 F9000 X62.159 Y53.957
G1 F1800 X55.140 Y46.938 E76.75339
G0 F9000 X54.575 Y46.938
G1 F1800 X61.593 Y53.957 E77.24859
G0 F9000 X61.028 Y53.957
G1 F1800 X54.009 Y46.938 E77.74381
G0 F9000 X53.443 Y46.938
G1 F1800 X60.462 Y53.957 E78.23904
G0 F9000 X59.896 Y53.957
G1 F1800 X33.156 Y27.217 E80.12569
G0 F9000 X33.156 Y27.782
G1 F1800 X59.331 Y53.957 E81.97248
G0 F9000 X58.765 Y53.957
G1 F1800 X33.156 Y28.348 E83.77933
G0 F9000 X33.156 Y28.914
G1 F1800 X58.199 Y53.957 E85.54625
G0 F9000 X57.634 Y53.957
G1 F1800 X33.156 Y29.479 E87.27331
G0 F9000 X33.156 Y30.045
G1 F1800 X57.068 Y53.957 E88.96043
G0 F9000 X56.502 Y53.957
G1 F1800 X33.156 Y30.611 E90.60762
G0 F9000 X33.156 Y31.177
G1 F1800 X55.937 Y53.957 E92.21490
G0 F9000 X55.371 Y53.957
G1 F1800 X33.156 Y31.742 E93.78229
G0 F9000 X33.156 Y32.308
G1 F1800 X54.805 Y53.957 E95.30975
G0 F9000 X54.240 Y53.957
G1 F1800 X33.156 Y32.874 E96.79730
G0 F9000 X33.156 Y33.439
G1 F1800 X53.674 Y53.957 E98.24496
G0 F9000 X53.108 Y53.957
G1 F1800 X33.156 Y34.005 E99.65268
G0 F9000 X33.156 Y34.571
G1 F1800 X52.542 Y53.957 E101.02046
G0 F9000 X51.977 Y53.957
G1 F1800 X33.156 Y35.136 E102.34839
G0 F9000 X33.156 Y35.702
G1 F1800 X51.411 Y53.957 E103.63638
G0 F9000 X50.845 Y53.957
G1 F1800 X33.156 Y36.268 E104.88443
G0 F9000 X33.156 Y36.833
G1 F1800 X50.280 Y53.957 E106.09262
G0 F9000 X49.714 Y53.957
G1 F1800 X33.156 Y37.399 E107.26088
G0 F9000 X33.156 Y37.965
G1 F1800 X49.148 Y53.957 E108.38920
G0 F9000 X48.583 Y53.957
G1 F1800 X33.156 Y38.530 E109.47766
G0 F9000 X33.156 Y39.096
G1 F1800 X48.017 Y53.957 E110.52618
G0 F9000 X47.451 Y53.957
G1 F1800 X33.156 Y39.662 E111.53477
G0 F9000 X33.156 Y26.651
G1 F1800 X53.227 Y46.722 E112.95089
G0 F9000 X53.227 Y46.156
G1 F1800 X33.156 Y26.085 E114.36701
G0 F9000 X33.157 Y40.228
G1 F1800 X46.886 Y53.957 E115.33566
G0 F9000 X46.320 Y53.957
G1 F1800 X33.157 Y40.794 E116.26438
G0 F9000 X33.157 Y41.360
G1 F1800 X45.754 Y53.957 E117.15317
G0 F9000 X45.189 Y53.957
G1 F1800 X33.157 Y41.925 E118.00209
G0 F9000 X33.157 Y42.491
G1 F1800 X44.623 Y53.957 E118.81108
G0 F9000 X44.057 Y53.957
G1 F1800 X33.157 Y43.057 E119.58013
G0 F9000 X33.157 Y43.622
G1 F1800 X43.492 Y53.957 E120.30932
G0 F9000 X42.926 Y53.957
G1 F1800 X33.157 Y44.188 E120.99858
G0 F9000 X33.157 Y44.754
G1 F1800 X42.360 Y53.957 E121.64790
G0 F9000 X41.794 Y53.957
G1 F1800 X33.157 Y45.319 E122.25732
G0 F9000 X33.157 Y45.885
G1 F1800 X41.229 Y53.957 E122.82685
G0 F9000 X40.663 Y53.957
G1 F1800 X33.157 Y46.451 E123.35643
G0 F9000 X33.157 Y47.016
G1 F1800 X40.097 Y53.957 E123.84612
G0 F9000 X39.532 Y53.957
G1 F1800 X33.157 Y47.582 E124.29591
G0 F9000 X33.157 Y48.148
G1 F1800 X38.966 Y53.957 E124.70577
G0 F9000 X38.400 Y53.957
G1 F1800 X33.157 Y48.714 E125.07569
G0 F9000 X33.157 Y49.279
G1 F1800 X37.835 Y53.957 E125.40575
G0 F9000 X37.269 Y53.957
G1 F1800 X33.157 Y49.845 E125.69587
G0 F9000 X33.157 Y50.411
G1 F1800 X36.703 Y53.957 E125.94606
G0 F9000 X36.138 Y53.957
G1 F1800 X33.157 Y50.976 E126.15639
G0 F9000 X33.157 Y51.542
G1 F1800 X35.572 Y53.957 E126.32678
G0 F9000 X35.006 Y53.957
G1 F1800 X33.157 Y52.108 E126.45724
G0 F9000 X33.157 Y52.673
G1 F1800 X34.441 Y53.957 E126.54783
G0 F9000 X33.875 Y53.957
G1 F1800 X33.157 Y53.239 E126.59849
G0 F9000 X33.157 Y53.805
G1 F1800 X33.309 Y53.957 E126.60921
;LAYER:1
M106 S63
G0 F9000 X33.018 Y54.098 Z0.500
;TYPE:WALL-INNER
G1 F2220 X33.018 Y25.298 E127.56711
G1 X70.818 Y25.298 E128.82434
G1 X70.818 Y31.598 E129.03388
G1 X53.368 Y31.598 E129.61427
G1 X53.368 Y46.798 E130.11982
G1 X70.818 Y46.798 E130.70021
G1 X70.818 Y54.098 E130.94301
G1 X33.018 Y54.098 E132.20024
G0 F9000 X32.618 Y54.498
;TYPE:WALL-OUTER
G1 F1980 X32.618 Y24.898 E133.18474
G1 X71.218 Y24.898 E134.46858
G1 X71.218 Y31.998 E134.70473
G1 X53.768 Y31.998 E135.28512
G1 X53.768 Y46.398 E135.76407
G1 X71.218 Y46.398 E136.34446
G1 X71.218 Y54.498 E136.61386
G1 X32.618 Y54.498 E137.89770
G0 F9000 X33.440 Y53.957
;TYPE:SKIN
G1 F1980 X53.227 Y34.170 E138.82842
G0 F9000 X53.227 Y33.605
G1 F1980 X33.158 Y53.674 E139.77241
G0 F9000 X33.158 Y53.108
G1 F1980 X53.227 Y33.039 E140.71639
G0 F9000 X53.227 Y32.473
G1 F1980 X33.158 Y52.542 E141.66038
G0 F9000 X33.158 Y51.977
G1 F1980 X53.227 Y31.908 E142.60436
G0 F9000 X53.677 Y31.458
G1 F1980 X59.697 Y25.438 E142.88752
G0 F9000 X60.263 Y25.438
G1 F1980 X54.242 Y31.458 E143.17071
G0 F9000 X54.808 Y31.458
G1 F1980 X60.828 Y25.438 E143.45387
G0 F9000 X61.394 Y25.438
G1 F1980 X55.374 Y31.458 E143.73703
G0 F9000 X55.939 Y31.458
G1 F1980 X61.960 Y25.438 E144.02022
G0 F9000 X62.525 Y25.438
G1 F1980 X56.505 Y31.458 E144.30338
G0 F9000 X57.071 Y31.458
G1 F1980 X63.091 Y25.438 E144.58654
G0 F9000 X63.657 Y25.438
G1 F1980 X57.636 Y31.458 E144.86973
G0 F9000 X58.202 Y31.458
G1 F1980 X64.222 Y25.438 E145.15289
G0 F9000 X64.788 Y25.438
G1 F1980 X58.768 Y31.458 E145.43606
G0 F9000 X59.334 Y31.458
G1 F1980 X65.354 Y25.438 E145.71922
G0 F9000 X65.920 Y25.438
G1 F1980 X59.899 Y31.458 E146.00240
G0 F9000 X59.131 Y25.438
G1 F1980 X33.158 Y51.411 E147.22409
G0 F9000 X33.158 Y50.845
G1 F1980 X58.566 Y25.438 E148.41918
G0 F9000 X58.000 Y25.438
G1 F1980 X33.158 Y50.280 E149.58768
G0 F9000 X33.158 Y49.714
G1 F1980 X57.434 Y25.438 E150.72954
G0 F9000 X56.869 Y25.438
G1 F1980 X33.158 Y49.148 E151.84481
G0 F9000 X33.158 Y48.583
G1 F1980 X56.303 Y25.438 E152.93348
G0 F9000 X55.737 Y25.438
G1 F1980 X33.158 Y48.017 E153.99553
G0 F9000 X33.158 Y47.451
G1 F1980 X55.172 Y25.438 E155.03098
G0 F9000 X54.606 Y25.438
G1 F1980 X33.158 Y46.886 E156.03983
G0 F9000 X33.158 Y46.320
G1 F1980 X54.040 Y25.438 E157.02205
G0 F9000 X53.474 Y25.438
G1 F1980 X33.158 Y45.754 E157.97765
G0 F9000 X33.158 Y45.189
G1 F1980 X52.909 Y25.438 E158.90668
G0 F9000 X52.343 Y25.438
G1 F1980 X33.158 Y44.623 E159.80908
G0 F9000 X33.158 Y44.057
G1 F1980 X51.777 Y25.438 E160.68486
G0 F9000 X51.212 Y25.438
G1 F1980 X33.158 Y43.492 E161.53407
G0 F9000 X33.158 Y42.926
G1 F1980 X50.646 Y25.438 E162.35665
G0 F9000 X50.080 Y25.438
G1 F1980 X33.158 Y42.360 E163.15261
G0 F9000 X33.158 Y41.794
G1 F1980 X49.515 Y25.438 E163.92197
G0 F9000 X48.949 Y25.438
G1 F1980 X33.158 Y41.229 E164.66473
G0 F9000 X33.158 Y40.663
G1 F1980 X48.383 Y25.438 E165.38087
G0 F9000 X47.818 Y25.438
G1 F1980 X33.158 Y40.097 E166.07041
G0 F9000 X34.006 Y53.957
G1 F1980 X53.227 Y34.736 E166.97450
G0 F9000 X53.227 Y35.302
G1 F1980 X34.571 Y53.957 E167.85200
G0 F9000 X35.137 Y53.957
G1 F1980 X53.227 Y35.867 E168.70290
G0 F9000 X53.227 Y36.433
G1 F1980 X35.703 Y53.957 E169.52717
G0 F9000 X36.268 Y53.957
G1 F1980 X53.227 Y36.999 E170.32485
G0 F9000 X53.227 Y37.565
G1 F1980 X36.834 Y53.957 E171.09590
G0 F9000 X37.400 Y53.957
G1 F1980 X53.227 Y38.130 E171.84036
G0 F9000 X53.227 Y38.696
G1 F1980 X37.965 Y53.957 E172.55821
G0 F9000 X38.531 Y53.957
G1 F1980 X53.227 Y39.262 E173.24944
G0 F9000 X53.227 Y39.827
G1 F1980 X39.097 Y53.957 E173.91407
G0 F9000 X39.663 Y53.957
G1 F1980 X53.227 Y40.393 E174.55208
G0 F9000 X53.227 Y40.959
G1 F1980 X40.228 Y53.957 E175.16349
G0 F9000 X40.794 Y53.957
G1 F1980 X53.227 Y41.524 E175.74830
G0 F9000 X53.227 Y42.090
G1 F1980 X41.360 Y53.957 E176.30649
G0 F9000 X41.925 Y53.957
G1 F1980 X53.227 Y42.656 E176.83808
G0 F9000 X53.227 Y43.221
G1 F1980 X42.491 Y53.957 E177.34307
G0 F9000 X43.057 Y53.957
G1 F1980 X53.227 Y43.787 E177.82143
G0 F9000 X53.227 Y44.353
G1 F1980 X43.622 Y53.957 E178.27320
G0 F9000 X44.188 Y53.957
G1 F1980 X53.227 Y44.918 E178.69836
G0 F9000 X53.227 Y45.484
G1 F1980 X44.754 Y53.957 E179.09691
G0 F9000 X45.319 Y53.957
G1 F1980 X53.227 Y46.050 E179.46885
G0 F9000 X53.227 Y46.616
G1 F1980 X45.885 Y53.957 E179.81417
G0 F9000 X46.451 Y53.957
G1 F1980 X53.470 Y46.938 E180.14433
G0 F9000 X54.036 Y46.938
G1 F1980 X47.016 Y53.957 E180.47450
G0 F9000 X47.582 Y53.957
G1 F1980 X54.602 Y46.938 E180.80468
G0 F9000 X55.167 Y46.938
G1 F1980 X48.148 Y53.957 E181.13483
G0 F9000 X48.714 Y53.957
G1 F1980 X55.733 Y46.938 E181.46498
G0 F9000 X56.299 Y46.938
G1 F1980 X49.279 Y53.957 E181.79516
G0 F9000 X49.845 Y53.957
G1 F1980 X56.864 Y46.938 E182.12531
G0 F9000 X57.430 Y46.938
G1 F1980 X50.411 Y53.957 E182.45546
G0 F9000 X50.976 Y53.957
G1 F1980 X57.996 Y46.938 E182.78564
G0 F9000 X58.561 Y46.938
G1 F1980 X51.542 Y53.957 E183.11579
G0 F9000 X52.108 Y53.957
G1 F1980 X59.127 Y46.938 E183.44594
G0 F9000 X59.693 Y46.938
G1 F1980 X52.673 Y53.957 E183.77612
G0 F9000 X53.239 Y53.957
G1 F1980 X60.258 Y46.938 E184.10627
G0 F9000 X60.824 Y46.938
G1 F1980 X53.805 Y53.957 E184.43642
G0 F9000 X54.370 Y53.957
G1 F1980 X61.390 Y46.938 E184.76660
G0 F9000 X61.955 Y46.938
G1 F1980 X54.936 Y53.957 E185.09675
G0 F9000 X55.502 Y53.957
