;Generated with Cura_SteamEngine 15.01
; Default start code
G28 ; Home extruder
G1 Z15 F100
M107 ; Turn off fan
G90 ; Absolute positioning
M82 ; Extruder in absolute mode
M190 S50
; Activate all used extruder
M104 T0 S205
G92 E0 ; Reset extruder position
; Wait for all used extruders to reach temperature
M109 T0 S205
;Layer count: 20
;LAYER:0
M107
G0 F9000 X12.762 Y117.963 Z0.300
;TYPE:SKIRT
G1 F1800 X58.162 Y117.963 E2.26502
G1 X58.162 Y154.363 E4.08102
G1 X12.762 Y154.363 E6.34603
G1 X12.762 Y117.963 E8.16204
G0 F9000 X12.136 Y165.441
G1 F1800 X57.536 Y165.441 E10.42705
G1 X57.536 Y179.341 E11.12053
G1 X40.086 Y179.341 E11.99111
G1 X40.086 Y186.941 E12.37028
G1 X57.536 Y186.941 E13.24086
G1 X57.536 Y201.841 E13.98422
G1 X12.136 Y201.841 E16.24924
G1 X12.136 Y165.441 E18.06524
G1 F2400 E14.06524
G0 F9000 X16.562 Y150.563
;TYPE:WALL-INNER
G1 F2400 E18.06524
G1 F1800 X16.562 Y121.763 E19.50208
G1 X54.362 Y121.763 E21.38793
G1 X54.362 Y150.563 E22.82477
G1 X16.562 Y150.563 E24.71062
G0 F9000 X16.162 Y150.963
;TYPE:WALL-OUTER
G1 F1800 X16.162 Y121.363 E26.18737
G1 X54.762 Y121.363 E28.11313
G1 X54.762 Y150.963 E29.58988
G1 X16.162 Y150.963 E31.51564
G0 F9000 X17.203 Y150.422
;TYPE:SKIN
G1 F1800 X16.701 Y149.920 E31.55106
G0 F9000 X16.701 Y149.355
G1 F1800 X17.768 Y150.422 E31.62634
G0 F9000 X18.334 Y150.422
G1 F1800 X16.701 Y148.789 E31.74156
G0 F9000 X16.701 Y148.223
G1 F1800 X18.900 Y150.422 E31.89671
G0 F9000 X19.465 Y150.422
G1 F1800 X16.701 Y147.658 E32.09173
G0 F9000 X16.701 Y147.092
G1 F1800 X20.031 Y150.422 E32.32668
G0 F9000 X20.597 Y150.422
G1 F1800 X16.701 Y146.526 E32.60156
G0 F9000 X16.701 Y145.960
G1 F1800 X21.162 Y150.422 E32.91634
G0 F9000 X21.728 Y150.422
G1 F1800 X16.701 Y145.395 E33.27102
G0 F9000 X16.701 Y144.829
G1 F1800 X22.294 Y150.422 E33.66564
G0 F9000 X22.860 Y150.422
G1 F1800 X16.701 Y144.263 E34.10019
G0 F9000 X16.701 Y143.698
G1 F1800 X23.425 Y150.422 E34.57461
G0 F9000 X23.991 Y150.422
G1 F1800 X16.701 Y143.132 E35.08895
G0 F9000 X16.701 Y142.566
G1 F1800 X24.557 Y150.422 E35.64324
G0 F9000 X25.122 Y150.422
G1 F1800 X16.701 Y142.001 E36.23738
G0 F9000 X16.701 Y141.435
G1 F1800 X25.688 Y150.422 E36.87147
G0 F9000 X26.254 Y150.422
G1 F1800 X16.701 Y140.869 E37.54548
G0 F9000 X16.701 Y140.304
G1 F1800 X26.819 Y150.422 E38.25936
G0 F9000 X27.385 Y150.422
G1 F1800 X16.701 Y139.738 E39.01318
G0 F9000 X16.701 Y139.172
G1 F1800 X27.951 Y150.422 E39.80692
G0 F9000 X28.516 Y150.422
G1 F1800 X16.701 Y138.607 E40.64054
G0 F9000 X16.701 Y138.041
G1 F1800 X29.082 Y150.422 E41.51408
G0 F9000 X29.648 Y150.422
G1 F1800 X16.701 Y137.475 E42.42756
G0 F9000 X16.701 Y136.910
G1 F1800 X30.213 Y150.422 E43.38091
G0 F9000 X30.779 Y150.422
G1 F1800 X16.701 Y136.344 E44.37419
G0 F9000 X16.701 Y135.778
G1 F1800 X31.345 Y150.422 E45.40740
G0 F9000 X31.911 Y150.422
G1 F1800 X16.701 Y135.212 E46.48055
G0 F9000 X16.701 Y134.647
G1 F1800 X32.476 Y150.422 E47.59356
G0 F9000 X33.042 Y150.422
G1 F1800 X16.701 Y134.081 E48.74650
G0 F9000 X16.701 Y133.515
G1 F1800 X33.608 Y150.422 E49.93938
G0 F9000 X34.173 Y150.422
G1 F1800 X16.701 Y132.950 E51.17213
G0 F9000 X16.701 Y132.384
G1 F1800 X34.739 Y150.422 E52.44481
G0 F9000 X35.305 Y150.422
G1 F1800 X16.701 Y131.818 E53.75742
G0 F9000 X16.701 Y131.253
G1 F1800 X35.870 Y150.422 E55.10990
G0 F9000 X36.436 Y150.422
G1 F1800 X16.701 Y130.687 E56.50231
G0 F9000 X16.701 Y130.121
G1 F1800 X37.002 Y150.422 E57.93465
G0 F9000 X37.567 Y150.422
G1 F1800 X16.701 Y129.556 E59.40686
G0 F9000 X16.701 Y128.990
G1 F1800 X38.133 Y150.422 E60.91900
G0 F9000 X38.699 Y150.422
G1 F1800 X16.701 Y128.424 E62.47108
G0 F9000 X16.701 Y127.859
G1 F1800 X39.264 Y150.422 E64.06302
G0 F9000 X39.830 Y150.422
G1 F1800 X16.701 Y127.293 E65.69490
G0 F9000 X16.701 Y126.727
G1 F1800 X40.396 Y150.422 E67.36671
G0 F9000 X40.961 Y150.422
G1 F1800 X16.701 Y126.161 E69.07842
G0 F9000 X16.701 Y125.596
G1 F1800 X41.527 Y150.422 E70.83003
G0 F9000 X42.093 Y150.422
G1 F1800 X16.701 Y125.030 E72.62157
G0 F9000 X16.701 Y124.464
G1 F1800 X42.659 Y150.422 E74.45305
G0 F9000 X43.224 Y150.422
G1 F1800 X16.701 Y123.899 E76.32439
G0 F9000 X16.701 Y123.333
G1 F1800 X43.790 Y150.422 E78.23566
G0 F9000 X44.356 Y150.422
G1 F1800 X16.701 Y122.767 E80.18687
G0 F9000 X16.701 Y122.202
G1 F1800 X44.921 Y150.422 E82.17795
G0 F9000 X45.487 Y150.422
G1 F1800 X16.967 Y121.902 E84.19019
G0 F9000 X17.533 Y121.902
G1 F1800 X46.053 Y150.422 E86.20243
G0 F9000 X46.618 Y150.422
G1 F1800 X18.099 Y121.902 E88.21463
G0 F9000 X18.664 Y121.902
G1 F1800 X47.184 Y150.422 E90.22687
G0 F9000 X47.750 Y150.422
G1 F1800 X19.230 Y121.902 E92.23911
G0 F9000 X19.796 Y121.902
G1 F1800 X48.315 Y150.422 E94.25132
G0 F9000 X48.881 Y150.422
G1 F1800 X20.361 Y121.902 E96.26356
G0 F9000 X20.927 Y121.902
G1 F1800 X49.447 Y150.422 E98.27580
G0 F9000 X50.012 Y150.422
G1 F1800 X21.493 Y121.902 E100.28800
G0 F9000 X22.058 Y121.902
G1 F1800 X50.578 Y150.422 E102.30024
G0 F9000 X51.144 Y150.422
G1 F1800 X22.624 Y121.902 E104.31248
G0 F9000 X23.190 Y121.902
G1 F1800 X51.710 Y150.422 E106.32472
G0 F9000 X52.275 Y150.422
G1 F1800 X23.755 Y121.902 E108.33696
G0 F9000 X24.321 Y121.902
G1 F1800 X52.841 Y150.422 E110.34920
G0 F9000 X53.407 Y150.422
G1 F1800 X24.887 Y121.902 E112.36144
G0 F9000 X25.453 Y121.902
G1 F1800 X53.972 Y150.422 E114.37365
G0 F9000 X54.222 Y150.106
G1 F1800 X26.018 Y121.902 E116.36359
G0 F9000 X26.584 Y121.902
G1 F1800 X54.222 Y149.540 E118.31360
G0 F9000 X54.222 Y148.974
G1 F1800 X27.150 Y121.902 E120.22368
G0 F9000 X27.715 Y121.902
G1 F1800 X54.222 Y148.408 E122.09385
G0 F9000 X54.222 Y147.843
G1 F1800 X28.281 Y121.902 E123.92413
G0 F9000 X28.847 Y121.902
G1 F1800 X54.222 Y147.277 E125.71447
G0 F9000 X54.222 Y146.711
G1 F1800 X29.412 Y121.902 E127.46492
G0 F9000 X29.978 Y121.902
G1 F1800 X54.222 Y146.146 E129.17546
G0 F9000 X54.222 Y145.580
G1 F1800 X30.544 Y121.902 E130.84607
G0 F9000 X31.109 Y121.902
G1 F1800 X54.222 Y145.014 E132.47679
G0 F9000 X54.222 Y144.449
G1 F1800 X31.675 Y121.902 E134.06760
G0 F9000 X32.241 Y121.902
G1 F1800 X54.222 Y143.883 E135.61848
G0 F9000 X54.222 Y143.317
G1 F1800 X32.806 Y121.902 E137.12946
G0 F9000 X33.372 Y121.902
G1 F1800 X54.222 Y142.752 E138.60054
G0 F9000 X54.222 Y142.186
G1 F1800 X33.938 Y121.902 E140.03168
G0 F9000 X34.503 Y121.902
G1 F1800 X54.222 Y141.620 E141.42293
G0 F9000 X54.222 Y141.055
G1 F1800 X35.069 Y121.902 E142.77428
G0 F9000 X35.635 Y121.902
G1 F1800 X54.222 Y140.489 E144.08569
G0 F9000 X54.222 Y139.923
G1 F1800 X36.201 Y121.902 E145.35717
G0 F9000 X36.766 Y121.902
G1 F1800 X54.222 Y139.358 E146.58878
G0 F9000 X54.222 Y138.792
G1 F1800 X37.332 Y121.902 E147.78046
G0 F9000 X37.898 Y121.902
G1 F1800 X54.222 Y138.226 E148.93221
G0 F9000 X54.222 Y137.660
G1 F1800 X38.463 Y121.902 E150.04406
G0 F9000 X39.029 Y121.902
G1 F1800 X54.222 Y137.095 E151.11601
G0 F9000 X54.222 Y136.529
G1 F1800 X39.595 Y121.902 E152.14802
G0 F9000 X40.160 Y121.902
G1 F1800 X54.222 Y135.963 E153.14013
G0 F9000 X54.222 Y135.398
G1 F1800 X40.726 Y121.902 E154.09235
G0 F9000 X41.292 Y121.902
G1 F1800 X54.222 Y134.832 E155.00463
G0 F9000 X54.222 Y134.266
G1 F1800 X41.857 Y121.902 E155.87701
G0 F9000 X42.423 Y121.902
G1 F1800 X54.222 Y133.701 E156.70950
G0 F9000 X54.222 Y133.135
G1 F1800 X42.989 Y121.902 E157.50205
G0 F9000 X43.554 Y121.902
G1 F1800 X54.222 Y132.569 E158.25470
G0 F9000 X54.222 Y132.004
G1 F1800 X44.120 Y121.902 E158.96745
G0 F9000 X44.686 Y121.902
G1 F1800 X54.222 Y131.438 E159.64026
G0 F9000 X54.222 Y130.872
G1 F1800 X45.252 Y121.902 E160.27314
G0 F9000 X45.817 Y121.902
G1 F1800 X54.222 Y130.307 E160.86616
G0 F9000 X54.222 Y129.741
G1 F1800 X46.383 Y121.902 E161.41925
G0 F9000 X46.949 Y121.902
G1 F1800 X54.222 Y129.175 E161.93240
G0 F9000 X54.222 Y128.609
G1 F1800 X47.514 Y121.902 E162.40565
G0 F9000 X48.080 Y121.902
G1 F1800 X54.222 Y128.044 E162.83900
G0 F9000 X54.222 Y127.478
G1 F1800 X48.646 Y121.902 E163.23241
G0 F9000 X49.211 Y121.902
G1 F1800 X54.222 Y126.912 E163.58593
G0 F9000 X54.222 Y126.347
G1 F1800 X49.777 Y121.902 E163.89955
G0 F9000 X50.343 Y121.902
G1 F1800 X54.222 Y125.781 E164.17324
G0 F9000 X54.222 Y125.215
G1 F1800 X50.908 Y121.902 E164.40702
G0 F9000 X51.474 Y121.902
G1 F1800 X54.222 Y124.650 E164.60091
G0 F9000 X54.222 Y124.084
G1 F1800 X52.040 Y121.902 E164.75486
G0 F9000 X52.605 Y121.902
G1 F1800 X54.222 Y123.518 E164.86891
G0 F9000 X54.222 Y122.953
G1 F1800 X53.171 Y121.902 E164.94307
G0 F9000 X53.737 Y121.902
G1 F1800 X54.222 Y122.387 E164.97729
G1 F2400 E160.97729
G0 F9000 X53.736 Y169.241
;TYPE:WALL-INNER
G1 F2400 E164.97729
G1 F1800 X53.736 Y175.541 E165.29159
G1 X36.286 Y175.541 E166.16218
G1 X36.286 Y190.741 E166.92051
G1 X53.736 Y190.741 E167.79109
G1 X53.736 Y198.041 E168.15529
G1 X15.936 Y198.041 E170.04114
G1 X15.936 Y169.241 E171.47798
G1 X53.736 Y169.241 E173.36383
G0 F9000 X54.136 Y168.841
;TYPE:WALL-OUTER
G1 F1800 X54.136 Y175.941 E173.71805
G1 X36.686 Y175.941 E174.58863
G1 X36.686 Y190.341 E175.30705
G1 X54.136 Y190.341 E176.17764
G1 X54.136 Y198.441 E176.58175
G1 X15.536 Y198.441 E178.50751
G1 X15.536 Y168.841 E179.98426
G1 X54.136 Y168.841 E181.91002
G0 F9000 X53.132 Y169.380
;TYPE:SKIN
G1 F1800 X53.595 Y169.844 E181.94272
G0 F9000 X53.595 Y170.409
G1 F1800 X52.566 Y169.380 E182.01532
G0 F9000 X52.000 Y169.380
G1 F1800 X53.595 Y170.975 E182.12786
G0 F9000 X53.595 Y171.541
G1 F1800 X51.434 Y169.380 E182.28033
G0 F9000 X50.869 Y169.380
G1 F1800 X53.595 Y172.106 E182.47266
G0 F9000 X53.595 Y172.672
G1 F1800 X50.303 Y169.380 E182.70493
G0 F9000 X49.737 Y169.380
G1 F1800 X53.595 Y173.238 E182.97714
G0 F9000 X53.595 Y173.804
G1 F1800 X49.172 Y169.380 E183.28924
G0 F9000 X48.606 Y169.380
G1 F1800 X53.595 Y174.369 E183.64124
G0 F9000 X53.595 Y174.935
G1 F1800 X48.040 Y169.380 E184.03317
G0 F9000 X47.475 Y169.380
G1 F1800 X53.495 Y175.400 E184.45792
G0 F9000 X52.929 Y175.400
G1 F1800 X46.909 Y169.380 E184.88266
G0 F9000 X46.343 Y169.380
G1 F1800 X52.364 Y175.400 E185.30744
G0 F9000 X51.798 Y175.400
G1 F1800 X45.778 Y169.380 E185.73218
G0 F9000 X45.212 Y169.380
G1 F1800 X51.232 Y175.400 E186.15693
G0 F9000 X50.667 Y175.400
G1 F1800 X44.646 Y169.380 E186.58170
G0 F9000 X44.081 Y169.380
G1 F1800 X50.101 Y175.400 E187.00645
G0 F9000 X49.535 Y175.400
G1 F1800 X43.515 Y169.380 E187.43119
G0 F9000 X42.949 Y169.380
G1 F1800 X48.969 Y175.400 E187.85594
G0 F9000 X48.404 Y175.400
G1 F1800 X42.383 Y169.380 E188.28071
G0 F9000 X41.818 Y169.380
G1 F1800 X47.838 Y175.400 E188.70546
G0 F9000 X47.272 Y175.400
G1 F1800 X41.252 Y169.380 E189.13020
G0 F9000 X40.686 Y169.380
G1 F1800 X46.707 Y175.400 E189.55498
G0 F9000 X46.141 Y175.400
G1 F1800 X40.121 Y169.380 E189.97972
G0 F9000 X39.555 Y169.380
G1 F1800 X45.575 Y175.400 E190.40447
G0 F9000 X45.010 Y175.400
G1 F1800 X38.989 Y169.380 E190.82925
G0 F9000 X38.424 Y169.380
G1 F1800 X44.444 Y175.400 E191.25399
G0 F9000 X43.878 Y175.400
G1 F1800 X37.858 Y169.380 E191.67873
G0 F9000 X37.292 Y169.380
G1 F1800 X43.313 Y175.400 E192.10351
G0 F9000 X42.747 Y175.400
G1 F1800 X36.727 Y169.380 E192.52826
G0 F9000 X36.161 Y169.380
G1 F1800 X42.181 Y175.400 E192.95300
G0 F9000 X41.616 Y175.400
G1 F1800 X35.595 Y169.380 E193.37778
G0 F9000 X35.030 Y169.380
G1 F1800 X41.050 Y175.400 E193.80252
G0 F9000 X40.484 Y175.400
G1 F1800 X34.464 Y169.380 E194.22726
G0 F9000 X33.898 Y169.380
G1 F1800 X39.919 Y175.400 E194.65204
G0 F9000 X39.353 Y175.400
G1 F1800 X33.333 Y169.380 E195.07679
G0 F9000 X32.767 Y169.380
G1 F1800 X38.787 Y175.400 E195.50153
G0 F9000 X38.221 Y175.400
G1 F1800 X32.201 Y169.380 E195.92627
G0 F9000 X31.635 Y169.380
G1 F1800 X37.656 Y175.400 E196.35105
G0 F9000 X37.090 Y175.400
G1 F1800 X31.070 Y169.380 E196.77580
G0 F9000 X30.504 Y169.380
G1 F1800 X36.524 Y175.400 E197.20054
G0 F9000 X36.145 Y175.587
G1 F1800 X29.938 Y169.380 E197.63848
G0 F9000 X29.373 Y169.380
G1 F1800 X36.145 Y176.153 E198.11631
G0 F9000 X36.145 Y176.718
G1 F1800 X28.807 Y169.380 E198.63405
G0 F9000 X28.241 Y169.380
G1 F1800 X36.145 Y177.284 E199.19172
G0 F9000 X36.145 Y177.850
G1 F1800 X27.676 Y169.380 E199.78929
G0 F9000 X27.110 Y169.380
G1 F1800 X36.145 Y178.415 E200.42676
G0 F9000 X36.145 Y178.981
G1 F1800 X26.544 Y169.380 E201.10416
G0 F9000 X25.979 Y169.380
G1 F1800 X36.145 Y179.547 E201.82146
G0 F9000 X36.145 Y180.112
G1 F1800 X25.413 Y169.380 E202.57866
G0 F9000 X24.847 Y169.380
G1 F1800 X36.145 Y180.678 E203.37580
G0 F9000 X36.145 Y181.244
G1 F1800 X24.282 Y169.380 E204.21283
G0 F9000 X23.716 Y169.380
G1 F1800 X36.145 Y181.809 E205.08976
G0 F9000 X36.145 Y182.375
G1 F1800 X23.150 Y169.380 E206.00663
G0 F9000 X22.584 Y169.380
G1 F1800 X36.145 Y182.941 E206.96343
G0 F9000 X36.145 Y183.506
G1 F1800 X22.019 Y169.380 E207.96010
G0 F9000 X21.453 Y169.380
G1 F1800 X36.145 Y184.072 E208.99670
G0 F9000 X36.145 Y184.638
G1 F1800 X20.887 Y169.380 E210.07323
G0 F9000 X20.322 Y169.380
G1 F1800 X36.145 Y185.203 E211.18963
G0 F9000 X36.145 Y185.769
G1 F1800 X19.756 Y169.380 E212.34596
G0 F9000 X19.190 Y169.380
G1 F1800 X36.145 Y186.335 E213.54223
G0 F9000 X36.145 Y186.901
G1 F1800 X18.625 Y169.380 E214.77839
G0 F9000 X18.059 Y169.380
G1 F1800 X36.145 Y187.466 E216.05446
G0 F9000 X36.145 Y188.032
G1 F1800 X17.493 Y169.380 E217.37046
G0 F9000 X16.928 Y169.380
G1 F1800 X36.145 Y188.598 E218.72636
G0 F9000 X36.145 Y189.163
G1 F1800 X16.362 Y169.380 E220.12215
G0 F9000 X16.075 Y169.658
G1 F1800 X36.145 Y189.729 E221.53824
G0 F9000 X36.145 Y190.295
G1 F1800 X16.075 Y170.224 E222.95432
G0 F9000 X16.075 Y170.790
G1 F1800 X36.145 Y190.860 E224.37037
G0 F9000 X36.165 Y190.880
G1 F1800 X43.185 Y197.900 E224.86567
G0 F9000 X43.750 Y197.900
G1 F1800 X36.731 Y190.880 E225.36093
G0 F9000 X37.297 Y190.880
G1 F1800 X44.316 Y197.900 E225.85619
G0 F9000 X44.882 Y197.900
G1 F1800 X37.862 Y190.880 E226.35149
G0 F9000 X38.428 Y190.880
G1 F1800 X45.447 Y197.900 E226.84675
G0 F9000 X46.013 Y197.900
G1 F1800 X38.994 Y190.880 E227.34202
G0 F9000 X39.559 Y190.880
G1 F1800 X46.579 Y197.900 E227.83732
G0 F9000 X47.144 Y197.900
G1 F1800 X40.125 Y190.880 E228.33258
G0 F9000 X40.691 Y190.880
G1 F1800 X47.710 Y197.900 E228.82784
G0 F9000 X48.276 Y197.900
G1 F1800 X41.256 Y190.880 E229.32314
G0 F9000 X41.822 Y190.880
G1 F1800 X48.841 Y197.900 E229.81841
G0 F9000 X49.407 Y197.900
G1 F1800 X42.388 Y190.880 E230.31367
G0 F9000 X42.953 Y190.880
G1 F1800 X49.973 Y197.900 E230.80897
G0 F9000 X50.539 Y197.900
G1 F1800 X43.519 Y190.880 E231.30427
G0 F9000 X44.085 Y190.880
G1 F1800 X51.104 Y197.900 E231.79953
G0 F9000 X51.670 Y197.900
G1 F1800 X44.650 Y190.880 E232.29483
G0 F9000 X45.216 Y190.880
G1 F1800 X52.236 Y197.900 E232.79013
G0 F9000 X52.801 Y197.900
G1 F1800 X45.782 Y190.880 E233.28539
G0 F9000 X46.348 Y190.880
G1 F1800 X53.367 Y197.900 E233.78066
G0 F9000 X53.595 Y197.562
G1 F1800 X46.913 Y190.880 E234.25211
G0 F9000 X47.479 Y190.880
G1 F1800 X53.595 Y196.997 E234.68366
G0 F9000 X53.595 Y196.431
G1 F1800 X48.045 Y190.880 E235.07528
G0 F9000 X48.610 Y190.880
G1 F1800 X53.595 Y195.865 E235.42700
G0 F9000 X53.595 Y195.300
G1 F1800 X49.176 Y190.880 E235.73882
G0 F9000 X49.742 Y190.880
G1 F1800 X53.595 Y194.734 E236.01070
G0 F9000 X53.595 Y194.168
G1 F1800 X50.307 Y190.880 E236.24269
G0 F9000 X50.873 Y190.880
G1 F1800 X53.595 Y193.603 E236.43478
G0 F9000 X53.595 Y193.037
G1 F1800 X51.439 Y190.880 E236.58693
G0 F9000 X52.004 Y190.880
G1 F1800 X53.595 Y192.471 E236.69918
G0 F9000 X53.595 Y191.905
G1 F1800 X52.570 Y190.880 E236.77150
G0 F9000 X53.136 Y190.880
G1 F1800 X53.595 Y191.340 E236.80392
G0 F9000 X42.619 Y197.900
G1 F1800 X16.075 Y171.356 E238.67674
G0 F9000 X16.075 Y171.921
